; generated by Slic3r 1.2.9 on 2018-12-30 at 17:04:24

; external perimeters extrusion width = 0.35mm
; perimeters extrusion width = 0.39mm
; infill extrusion width = 0.39mm
; solid infill extrusion width = 0.39mm
; top infill extrusion width = 0.39mm

M107
M190 S80 ; set bed temperature
M104 S230 ; set temperature
G28 ; home all axes
G1 Z5 F5000 ; lift nozzle
M109 S230 ; wait for temperature to be reached
G21 ; set units to millimeters
G90 ; use absolute coordinates
M82 ; use absolute distances for extrusion
G92 E0
G1 E-1.00000 F1800.00000
G92 E0
G1 Z0.350 F7800.000
G1 X34.196 Y40.959 F7800.000
G1 E1.00000 F1800.00000
G1 X35.938 Y39.545 E1.11934 F1080.000
G1 X39.003 Y38.755 E1.28766
G1 X83.603 Y38.755 E3.65955
G1 X85.811 Y39.152 E3.77889
G1 X87.194 Y39.870 E3.86174
G1 X123.089 Y64.515 E6.17731
G1 X123.984 Y65.259 E6.23922
G1 X125.484 Y66.759 E6.35204
G1 X126.765 Y68.602 E6.47138
G1 X127.342 Y71.246 E6.61531
G1 X127.342 Y86.246 E7.41303
G1 X126.945 Y88.455 E7.53237
G1 X125.484 Y90.732 E7.67630
G1 X121.984 Y94.232 E7.93953
G1 X121.278 Y94.841 E7.98908
G1 X87.384 Y119.995 E10.23379
G1 X85.374 Y120.992 E10.35313
G1 X83.603 Y121.245 E10.44827
G1 X39.003 Y121.245 E12.82016
G1 X36.794 Y120.848 E12.93950
G1 X34.862 Y119.707 E13.05885
G1 X33.447 Y117.965 E13.17819
G1 X32.658 Y114.900 E13.34651
G1 X32.658 Y45.100 E17.05853
G1 X33.055 Y42.892 E17.17787
G1 X34.169 Y41.004 E17.29443
G1 E16.29443 F1800.00000
G92 E0
G1 X83.393 Y95.390 F7800.000
G1 E1.00000 F1800.00000
G1 X83.393 Y114.690 E2.02638 F324.000
G1 X39.213 Y114.690 E4.37594
G1 X39.213 Y45.310 E8.06563
G1 X83.393 Y45.310 E10.41518
G1 X83.393 Y64.610 E11.44156
G1 X92.793 Y64.610 E11.94147
G1 X92.793 Y95.390 E13.57839
G1 X83.445 Y95.390 E14.07551
G1 X83.043 Y95.390 F7800.000
G1 X83.048 Y95.045 F7800.000
G1 X83.048 Y114.345 E15.10189 F540.000
G1 X39.558 Y114.345 E17.41476
G1 X39.558 Y45.655 E21.06777
G1 X83.048 Y45.655 E23.38064
G1 X83.048 Y64.955 E24.40702
G1 X92.448 Y64.955 E24.90693
G1 X92.448 Y95.045 E26.50717
G1 X83.100 Y95.045 E27.00428
G1 X79.707 Y54.700 F7800.000
G1 X79.707 Y54.543 E27.01267 F270.000
G1 X78.603 Y54.762 E27.07252
G1 X77.499 Y54.543 E27.13236
G1 X77.499 Y54.700 E27.14072
G1 X75.943 Y53.660 E27.24028
G1 X75.127 Y52.440 E27.31834
G1 X74.841 Y51.000 E27.39641
G1 X75.127 Y49.560 E27.47447
G1 X75.943 Y48.340 E27.55254
G1 X77.163 Y47.524 E27.63060
G1 X78.571 Y47.244 E27.70696
G1 X80.042 Y47.524 E27.78658
G1 X81.263 Y48.340 E27.86469
G1 X82.079 Y49.560 E27.94275
G1 X82.365 Y51.000 E28.02082
G1 X82.079 Y52.440 E28.09888
G1 X81.263 Y53.660 E28.17695
G1 X79.750 Y54.671 E28.27371
G1 X79.552 Y54.731 F7800.000
G1 X79.362 Y55.346 F7800.000
G1 X79.362 Y54.963 E28.29406 F270.000
G1 X78.603 Y55.114 E28.33520
G1 X77.844 Y54.963 E28.37635
G1 X77.844 Y55.346 E28.39669
G1 X75.694 Y53.909 E28.53421
G1 X74.802 Y52.574 E28.61957
G1 X74.489 Y51.000 E28.70493
G1 X74.802 Y49.426 E28.79030
G1 X75.694 Y48.091 E28.87566
G1 X77.029 Y47.199 E28.96101
G1 X78.570 Y46.892 E29.04459
G1 X80.175 Y47.198 E29.13151
G1 X81.512 Y48.091 E29.21699
G1 X82.404 Y49.426 E29.30235
G1 X82.717 Y51.000 E29.38772
G1 X82.404 Y52.574 E29.47308
G1 X81.512 Y53.909 E29.55844
G1 X79.406 Y55.316 E29.69317
G1 X79.017 Y55.991 F7800.000
G1 X81.761 Y54.158 E29.86865 F540.000
G1 X82.556 Y52.967 E29.94479
G1 X82.703 Y53.012 E29.95296
G1 X82.703 Y65.300 E30.60646
G1 X92.103 Y65.300 E31.10637
G1 X92.103 Y94.700 E32.66992
G1 X82.703 Y94.700 E33.16983
G1 X82.703 Y106.988 E33.82333
G1 X82.556 Y107.033 E33.83150
G1 X81.761 Y105.842 E33.90764
G1 X80.309 Y104.872 E34.00050
G1 X78.568 Y104.541 E34.09472
G1 X76.894 Y104.875 E34.18552
G1 X75.446 Y105.842 E34.27816
G1 X74.478 Y107.291 E34.37082
G1 X74.138 Y109.000 E34.46348
G1 X74.478 Y110.709 E34.55614
G1 X75.446 Y112.158 E34.64880
G1 X76.894 Y113.126 E34.74146
G1 X78.603 Y113.465 E34.83412
G1 X80.312 Y113.126 E34.92678
G1 X81.761 Y112.158 E35.01943
G1 X82.556 Y110.967 E35.09558
G1 X82.703 Y111.012 E35.10374
G1 X82.703 Y114.000 E35.26266
G1 X39.902 Y114.000 E37.53885
G1 X39.902 Y46.000 E41.15517
G1 X82.703 Y46.000 E43.43136
G1 X82.703 Y48.988 E43.59028
G1 X82.556 Y49.033 E43.59844
G1 X81.761 Y47.842 E43.67459
G1 X80.309 Y46.872 E43.76744
G1 X78.568 Y46.541 E43.86167
G1 X76.894 Y46.875 E43.95246
G1 X75.446 Y47.842 E44.04511
G1 X74.478 Y49.291 E44.13777
G1 X74.138 Y51.000 E44.23043
G1 X74.478 Y52.709 E44.32309
G1 X75.446 Y54.158 E44.41575
G1 X78.189 Y55.991 E44.59123
G1 X78.189 Y55.383 E44.62354
G1 X78.603 Y55.465 E44.64600
G1 X79.017 Y55.383 E44.66843
G1 X79.017 Y55.938 E44.69796
G1 E43.69796 F1800.00000
G92 E0
G1 X66.113 Y55.154 F7800.000
G1 E1.00000 F1800.00000
G1 X66.113 Y104.924 E3.64684 F324.000
G1 X53.443 Y104.924 E4.32065
G1 X53.443 Y55.154 E6.96749
G1 X66.061 Y55.154 E7.63851
G1 X66.463 Y55.154 F7800.000
G1 X66.458 Y54.809 F7800.000
G1 X66.458 Y105.269 E10.32203 F540.000
G1 X53.098 Y105.269 E11.03252
G1 X53.098 Y54.809 E13.71604
G1 X66.405 Y54.809 E14.42374
G1 X66.803 Y54.464 F7800.000
G1 X66.803 Y105.614 E17.14395 F540.000
G1 X52.753 Y105.614 E17.89113
G1 X52.753 Y54.464 E20.61133
G1 X66.750 Y54.464 E21.35572
G1 E20.35572 F1800.00000
G92 E0
G1 X77.163 Y105.524 F7800.000
G1 E1.00000 F1800.00000
G1 X78.571 Y105.244 E1.07636 F270.000
G1 X80.042 Y105.524 E1.15598
G1 X81.263 Y106.340 E1.23409
G1 X82.079 Y107.560 E1.31215
G1 X82.365 Y109.000 E1.39022
G1 X82.079 Y110.440 E1.46828
G1 X81.263 Y111.660 E1.54635
G1 X80.043 Y112.476 E1.62441
G1 X78.603 Y112.762 E1.70248
G1 X77.163 Y112.476 E1.78055
G1 X75.943 Y111.660 E1.85861
G1 X75.127 Y110.440 E1.93668
G1 X74.841 Y109.000 E2.01474
G1 X75.127 Y107.560 E2.09281
G1 X75.943 Y106.340 E2.17087
G1 X77.120 Y105.553 E2.24614
G1 X77.231 Y105.181 F7800.000
G1 X77.029 Y105.199 F7800.000
G1 X78.570 Y104.892 E2.32972 F270.000
G1 X80.175 Y105.198 E2.41664
G1 X81.512 Y106.091 E2.50212
G1 X82.404 Y107.426 E2.58748
G1 X82.717 Y109.000 E2.67285
G1 X82.404 Y110.574 E2.75821
G1 X81.512 Y111.909 E2.84357
G1 X80.177 Y112.801 E2.92893
G1 X78.603 Y113.114 E3.01429
G1 X77.029 Y112.801 E3.09966
G1 X75.694 Y111.909 E3.18502
G1 X74.802 Y110.574 E3.27038
G1 X74.489 Y109.000 E3.35574
G1 X74.802 Y107.426 E3.44111
G1 X75.694 Y106.091 E3.52647
G1 X76.985 Y105.229 E3.60903
G1 E2.60903 F1800.00000
G92 E0
G1 X82.704 Y107.168 F7800.000
G1 E1.00000 F1800.00000
G1 X82.864 Y108.798 E1.08706 F360.000
G1 X82.864 Y109.202 F7800.000
G1 X82.704 Y110.832 E1.17411 F360.000
G1 X82.503 Y111.807 F7800.000
G1 X82.322 Y111.626 E1.18965 F540.000
G1 X82.099 Y111.960 E1.21407
G1 X82.503 Y112.364 E1.24880
G1 X82.503 Y112.922 E1.28267
G1 X81.871 Y112.290 E1.33695
G1 X81.537 Y112.513 E1.36138
G1 X82.503 Y113.479 E1.44438
G1 X82.266 Y113.800 E1.46861
G1 X81.203 Y112.736 E1.56000
G1 X80.869 Y112.960 E1.58442
G1 X81.709 Y113.800 E1.65663
G1 X81.152 Y113.800 E1.69051
G1 X80.535 Y113.183 E1.74353
G1 X80.406 Y113.611 E1.77071
G1 X80.594 Y113.800 E1.78692
G1 X80.194 Y113.579 F7800.000
G1 X78.821 Y113.714 E1.94963 F360.000
G1 X78.821 Y113.714 F7800.000
G1 X78.621 Y113.733 E1.96030 F360.000
G1 X78.385 Y113.714 E1.97291
G1 X78.385 Y113.714 F7800.000
G1 X77.012 Y113.579 E2.13562 F360.000
G1 X75.740 Y112.659 F7800.000
G1 X76.804 Y113.722 E2.21566 F540.000
G1 X76.393 Y113.800 E2.23788
G1 X67.003 Y104.409 E2.94437
G1 X67.003 Y104.897 E2.97033
G1 X75.906 Y113.800 E3.64012
G1 X75.418 Y113.800 E3.66608
G1 X67.003 Y105.385 E4.29916
G1 X66.944 Y105.814 E4.32219
G1 X74.930 Y113.800 E4.92301
G1 X74.442 Y113.800 E4.94897
G1 X66.456 Y105.814 E5.54980
G1 X65.968 Y105.814 E5.57575
G1 X73.954 Y113.800 E6.17658
G1 X73.466 Y113.800 E6.20254
G1 X65.480 Y105.814 E6.80337
G1 X64.992 Y105.814 E6.82932
G1 X72.978 Y113.800 E7.43015
G1 X72.490 Y113.800 E7.45611
G1 X64.504 Y105.814 E8.05693
G1 X64.016 Y105.814 E8.08289
G1 X72.002 Y113.800 E8.68372
G1 X71.514 Y113.800 E8.70967
G1 X63.528 Y105.814 E9.31050
G1 X63.040 Y105.814 E9.33646
G1 X71.027 Y113.800 E9.93728
G1 X70.539 Y113.800 E9.96324
G1 X62.553 Y105.814 E10.56407
G1 X62.065 Y105.814 E10.59002
G1 X70.051 Y113.800 E11.19085
G1 X69.563 Y113.800 E11.21681
G1 X61.577 Y105.814 E11.81764
G1 X61.089 Y105.814 E11.84359
G1 X69.075 Y113.800 E12.44442
G1 X68.587 Y113.800 E12.47038
G1 X60.601 Y105.814 E13.07120
G1 X60.113 Y105.814 E13.09716
G1 X68.099 Y113.800 E13.69799
G1 X67.611 Y113.800 E13.72394
G1 X59.625 Y105.814 E14.32477
G1 X59.137 Y105.814 E14.35073
G1 X67.123 Y113.800 E14.95156
G1 X66.635 Y113.800 E14.97751
G1 X58.649 Y105.814 E15.57834
G1 X58.161 Y105.814 E15.60429
G1 X66.148 Y113.800 E16.20512
G1 X65.660 Y113.800 E16.23108
G1 X57.673 Y105.814 E16.83191
G1 X57.186 Y105.814 E16.85786
G1 X65.172 Y113.800 E17.45869
G1 X64.684 Y113.800 E17.48465
G1 X56.698 Y105.814 E18.08547
G1 X56.210 Y105.814 E18.11143
G1 X64.196 Y113.800 E18.71226
G1 X63.708 Y113.800 E18.73821
G1 X55.722 Y105.814 E19.33904
G1 X55.234 Y105.814 E19.36500
G1 X63.220 Y113.800 E19.96583
G1 X62.732 Y113.800 E19.99178
G1 X54.746 Y105.814 E20.59261
G1 X54.258 Y105.814 E20.61857
G1 X62.244 Y113.800 E21.21939
G1 X61.756 Y113.800 E21.24535
G1 X53.770 Y105.814 E21.84618
G1 X53.282 Y105.814 E21.87213
G1 X61.268 Y113.800 E22.47296
G1 X60.781 Y113.800 E22.49892
G1 X52.794 Y105.814 E23.09975
G1 X52.553 Y105.573 F7800.000
G1 X40.102 Y93.122 E24.03648 F540.000
G1 X40.102 Y92.634 E24.06243
G1 X52.553 Y105.085 E24.99916
G1 X52.553 Y104.597 E25.02512
G1 X40.102 Y92.146 E25.96185
G1 X40.102 Y91.658 E25.98780
G1 X52.553 Y104.109 E26.92453
G1 X52.553 Y103.621 E26.95049
G1 X40.102 Y91.170 E27.88722
G1 X40.102 Y90.682 E27.91318
G1 X52.553 Y103.133 E28.84991
G1 X52.553 Y102.645 E28.87586
G1 X40.102 Y90.194 E29.81259
G1 X40.102 Y89.706 E29.83855
G1 X52.553 Y102.157 E30.77528
G1 X52.553 Y101.669 E30.80124
G1 X40.102 Y89.218 E31.73797
G1 X40.102 Y88.731 E31.76392
G1 X52.553 Y101.181 E32.70065
G1 X52.553 Y100.694 E32.72661
G1 X40.102 Y88.243 E33.66334
G1 X40.102 Y87.755 E33.68929
G1 X52.553 Y100.206 E34.62603
G1 X52.553 Y99.718 E34.65198
G1 X40.102 Y87.267 E35.58871
G1 X40.102 Y86.779 E35.61467
G1 X52.553 Y99.230 E36.55140
G1 X52.553 Y98.742 E36.57735
G1 X40.102 Y86.291 E37.51408
G1 X40.102 Y85.803 E37.54004
G1 X52.553 Y98.254 E38.47677
G1 X52.553 Y97.766 E38.50273
G1 X40.102 Y85.315 E39.43946
G1 X40.102 Y84.827 E39.46541
G1 X52.553 Y97.278 E40.40214
G1 X52.553 Y96.790 E40.42810
G1 X40.102 Y84.339 E41.36483
G1 X40.102 Y83.852 E41.39079
G1 X52.553 Y96.302 E42.32752
G1 X52.553 Y95.815 E42.35347
G1 X40.102 Y83.364 E43.29020
G1 X40.102 Y82.876 E43.31616
G1 X52.553 Y95.327 E44.25289
G1 X52.553 Y94.839 E44.27884
G1 X40.102 Y82.388 E45.21557
G1 X40.102 Y81.900 E45.24153
G1 X52.553 Y94.351 E46.17826
G1 X52.553 Y93.863 E46.20422
G1 X40.102 Y81.412 E47.14095
G1 X40.102 Y80.924 E47.16690
G1 X52.553 Y93.375 E48.10363
G1 X52.553 Y92.887 E48.12959
G1 X40.102 Y80.436 E49.06632
G1 X40.102 Y79.948 E49.09228
G1 X52.553 Y92.399 E50.02901
G1 X52.553 Y91.911 E50.05496
G1 X40.102 Y79.460 E50.99169
G1 X40.102 Y78.973 E51.01765
G1 X52.553 Y91.423 E51.95438
G1 X52.553 Y90.936 E51.98033
G1 X40.102 Y78.485 E52.91707
G1 X40.102 Y77.997 E52.94302
G1 X52.553 Y90.448 E53.87975
G1 X52.553 Y89.960 E53.90571
G1 X40.102 Y77.509 E54.84244
G1 X40.102 Y77.021 E54.86839
G1 X52.553 Y89.472 E55.80512
G1 X52.553 Y88.984 E55.83108
G1 X40.102 Y76.533 E56.76781
G1 X40.102 Y76.045 E56.79377
G1 X52.553 Y88.496 E57.73050
G1 X52.553 Y88.008 E57.75645
G1 X40.102 Y75.557 E58.69318
G1 X40.102 Y75.069 E58.71914
G1 X52.553 Y87.520 E59.65587
G1 X52.553 Y87.032 E59.68183
G1 X40.102 Y74.581 E60.61856
G1 X40.102 Y74.093 E60.64451
G1 X52.553 Y86.544 E61.58124
G1 X52.553 Y86.056 E61.60720
G1 X40.102 Y73.606 E62.54393
G1 X40.102 Y73.118 E62.56988
G1 X52.553 Y85.569 E63.50661
G1 X52.553 Y85.081 E63.53257
G1 X40.102 Y72.630 E64.46930
G1 X40.102 Y72.142 E64.49526
G1 X52.553 Y84.593 E65.43199
G1 X52.553 Y84.105 E65.45794
G1 X40.102 Y71.654 E66.39467
G1 X40.102 Y71.166 E66.42063
G1 X52.553 Y83.617 E67.35736
G1 X52.553 Y83.129 E67.38332
G1 X40.102 Y70.678 E68.32005
G1 X40.102 Y70.190 E68.34600
G1 X52.553 Y82.641 E69.28273
G1 X52.553 Y82.153 E69.30869
G1 X40.102 Y69.702 E70.24542
G1 X40.102 Y69.214 E70.27137
G1 X52.553 Y81.665 E71.20811
G1 X52.553 Y81.177 E71.23406
G1 X40.102 Y68.727 E72.17079
G1 X40.102 Y68.239 E72.19675
G1 X52.553 Y80.690 E73.13348
G1 X52.553 Y80.202 E73.15943
G1 X40.102 Y67.751 E74.09616
G1 X40.102 Y67.263 E74.12212
G1 X52.553 Y79.714 E75.05885
G1 X52.553 Y79.226 E75.08481
G1 X40.102 Y66.775 E76.02154
G1 X40.102 Y66.287 E76.04749
G1 X52.553 Y78.738 E76.98422
G1 X52.553 Y78.250 E77.01018
G1 X40.102 Y65.799 E77.94691
G1 X40.102 Y65.311 E77.97287
G1 X52.553 Y77.762 E78.90960
G1 X52.553 Y77.274 E78.93555
G1 X40.102 Y64.823 E79.87228
G1 X40.102 Y64.335 E79.89824
G1 X52.553 Y76.786 E80.83497
G1 X52.553 Y76.298 E80.86092
G1 X40.102 Y63.848 E81.79765
G1 X40.102 Y63.360 E81.82361
G1 X52.553 Y75.810 E82.76034
G1 X52.553 Y75.323 E82.78630
G1 X40.102 Y62.872 E83.72303
G1 X40.102 Y62.384 E83.74898
G1 X52.553 Y74.835 E84.68571
G1 X52.553 Y74.347 E84.71167
G1 X40.102 Y61.896 E85.64840
G1 X40.102 Y61.408 E85.67436
G1 X52.553 Y73.859 E86.61109
G1 X52.553 Y73.371 E86.63704
G1 X40.102 Y60.920 E87.57377
G1 X40.102 Y60.432 E87.59973
G1 X52.553 Y72.883 E88.53646
G1 X52.553 Y72.395 E88.56241
G1 X40.102 Y59.944 E89.49915
G1 X40.102 Y59.456 E89.52510
G1 X52.553 Y71.907 E90.46183
G1 X52.553 Y71.419 E90.48779
G1 X40.102 Y58.968 E91.42452
G1 X40.102 Y58.481 E91.45047
G1 X52.553 Y70.931 E92.38720
G1 X52.553 Y70.444 E92.41316
G1 X40.102 Y57.993 E93.34989
G1 X40.102 Y57.505 E93.37585
G1 X52.553 Y69.956 E94.31258
G1 X52.553 Y69.468 E94.33853
G1 X40.102 Y57.017 E95.27526
G1 X40.102 Y56.529 E95.30122
G1 X52.553 Y68.980 E96.23795
G1 X52.553 Y68.492 E96.26391
G1 X40.102 Y56.041 E97.20064
G1 X40.102 Y55.553 E97.22659
G1 X52.553 Y68.004 E98.16332
G1 X52.553 Y67.516 E98.18928
G1 X40.102 Y55.065 E99.12601
G1 X40.102 Y54.577 E99.15196
G1 X52.553 Y67.028 E100.08869
G1 X52.553 Y66.540 E100.11465
G1 X40.102 Y54.089 E101.05138
G1 X40.102 Y53.602 E101.07734
G1 X52.553 Y66.052 E102.01407
G1 X52.553 Y65.565 E102.04002
G1 X40.102 Y53.114 E102.97675
G1 X40.102 Y52.626 E103.00271
G1 X52.553 Y65.077 E103.93944
G1 X52.553 Y64.589 E103.96540
G1 X40.102 Y52.138 E104.90213
G1 X40.102 Y51.650 E104.92808
G1 X52.553 Y64.101 E105.86481
G1 X52.553 Y63.613 E105.89077
G1 X40.102 Y51.162 E106.82750
G1 X40.102 Y50.674 E106.85345
G1 X52.553 Y63.125 E107.79018
G1 X52.553 Y62.637 E107.81614
G1 X40.102 Y50.186 E108.75287
G1 X40.102 Y49.698 E108.77883
G1 X52.553 Y62.149 E109.71556
G1 X52.553 Y61.661 E109.74151
G1 X40.102 Y49.210 E110.67824
G1 X40.102 Y48.723 E110.70420
G1 X52.553 Y61.173 E111.64093
G1 X52.553 Y60.685 E111.66689
G1 X40.102 Y48.235 E112.60362
G1 X40.102 Y47.747 E112.62957
G1 X52.553 Y60.198 E113.56630
G1 X52.553 Y59.710 E113.59226
G1 X40.102 Y47.259 E114.52899
G1 X40.102 Y46.771 E114.55494
G1 X52.553 Y59.222 E115.49168
G1 X52.553 Y58.734 E115.51763
G1 X40.102 Y46.283 E116.45436
G1 X40.507 Y46.200 E116.47636
G1 X52.553 Y58.246 E117.38261
G1 X52.553 Y57.758 E117.40857
G1 X40.995 Y46.200 E118.27812
G1 X41.483 Y46.200 E118.30408
G1 X52.553 Y57.270 E119.13692
G1 X52.553 Y56.782 E119.16287
G1 X41.971 Y46.200 E119.95901
G1 X42.459 Y46.200 E119.98497
G1 X52.553 Y56.294 E120.74440
G1 X52.553 Y55.806 E120.77035
G1 X42.947 Y46.200 E121.49308
G1 X43.435 Y46.200 E121.51903
G1 X52.553 Y55.319 E122.20505
G1 X52.553 Y54.831 E122.23100
G1 X43.923 Y46.200 E122.88031
G1 X44.411 Y46.200 E122.90627
G1 X52.553 Y54.343 E123.51887
G1 X52.963 Y54.264 E123.54105
G1 X44.899 Y46.200 E124.14774
G1 X45.387 Y46.200 E124.17370
G1 X53.451 Y54.264 E124.78039
G1 X53.939 Y54.264 E124.80635
G1 X45.874 Y46.200 E125.41304
G1 X46.362 Y46.200 E125.43900
G1 X54.426 Y54.264 E126.04570
G1 X54.914 Y54.264 E126.07165
G1 X46.850 Y46.200 E126.67835
G1 X47.338 Y46.200 E126.70430
G1 X55.402 Y54.264 E127.31100
G1 X55.890 Y54.264 E127.33696
G1 X47.826 Y46.200 E127.94365
G1 X48.314 Y46.200 E127.96961
G1 X56.378 Y54.264 E128.57630
G1 X56.866 Y54.264 E128.60226
G1 X48.802 Y46.200 E129.20895
G1 X49.290 Y46.200 E129.23491
G1 X57.354 Y54.264 E129.84161
G1 X57.842 Y54.264 E129.86756
G1 X49.778 Y46.200 E130.47426
G1 X50.266 Y46.200 E130.50021
