; generated by Slic3r 1.2.9 on 2019-11-24 at 09:50:37

; external perimeters extrusion width = 0.35mm
; perimeters extrusion width = 0.44mm
; infill extrusion width = 0.44mm
; solid infill extrusion width = 0.44mm
; top infill extrusion width = 0.44mm

M107
M190 S100 ; set bed temperature
M104 S240 ; set temperature
G28 ; home all axes
G1 Z5 F5000 ; lift nozzle
M109 S240 ; wait for temperature to be reached
G21 ; set units to millimeters
G90 ; use absolute coordinates
M82 ; use absolute distances for extrusion
G92 E0
G1 E-1.00000 F1800.00000
G92 E0
G1 Z0.300 F7800.000
G1 X69.084 Y72.084 F7800.000
G1 E1.00000 F1800.00000
G1 X70.000 Y71.704 E1.03874 F1080.000
G1 X90.000 Y71.704 E1.82019
G1 X90.916 Y72.084 E1.85893
G1 X95.916 Y77.084 E2.13521
G1 X96.296 Y78.000 E2.17396
G1 X96.296 Y85.000 E2.44746
G1 X95.916 Y85.916 E2.48621
G1 X93.916 Y87.916 E2.59672
G1 X93.000 Y88.296 E2.63546
G1 X67.000 Y88.296 E3.65134
G1 X66.084 Y87.916 E3.69008
G1 X64.084 Y85.916 E3.80060
G1 X63.704 Y85.000 E3.83934
G1 X63.704 Y78.000 E4.11284
G1 X64.084 Y77.084 E4.15159
G1 X69.047 Y72.121 E4.42582
G1 E3.42582 F1800.00000
G92 E0
G1 X92.677 Y85.659 F7800.000
G1 E1.00000 F1800.00000
G1 X92.309 Y85.847 E1.01616 F270.000
G1 X91.916 Y85.952 E1.03207
G1 X91.594 Y85.978 E1.04469
G1 X91.189 Y85.935 E1.06060
G1 X90.801 Y85.809 E1.07651
G1 X90.518 Y85.655 E1.08912
G1 X90.201 Y85.399 E1.10504
G1 X89.941 Y85.077 E1.12120
G1 X89.756 Y84.714 E1.13712
G1 X89.664 Y84.403 E1.14979
G1 X89.622 Y84.000 E1.16563
G1 X89.664 Y83.597 E1.18148
G1 X89.756 Y83.286 E1.19415
G1 X89.941 Y82.923 E1.21007
G1 X90.201 Y82.601 E1.22623
G1 X90.518 Y82.345 E1.24214
G1 X90.801 Y82.191 E1.25476
G1 X91.189 Y82.065 E1.27067
G1 X91.592 Y82.022 E1.28652
G1 X91.915 Y82.048 E1.29919
G1 X92.309 Y82.153 E1.31511
G1 X92.677 Y82.341 E1.33127
G1 X92.999 Y82.601 E1.34743
G1 X93.259 Y82.923 E1.36359
G1 X93.444 Y83.286 E1.37951
G1 X93.536 Y83.597 E1.39218
G1 X93.578 Y84.000 E1.40802
G1 X93.536 Y84.403 E1.42387
G1 X93.444 Y84.714 E1.43654
G1 X93.259 Y85.077 E1.45246
G1 X92.999 Y85.399 E1.46862
G1 X92.718 Y85.626 E1.48273
G1 X92.516 Y85.410 F7800.000
G1 X92.202 Y85.569 E1.49646 F270.000
G1 X91.865 Y85.660 E1.51010
G1 X91.598 Y85.681 E1.52059
G1 X91.250 Y85.644 E1.53423
G1 X90.919 Y85.536 E1.54786
G1 X90.683 Y85.408 E1.55835
G1 X90.411 Y85.189 E1.57199
G1 X90.190 Y84.916 E1.58572
G1 X90.032 Y84.604 E1.59936
G1 X89.955 Y84.346 E1.60991
G1 X89.919 Y84.000 E1.62349
G1 X89.955 Y83.654 E1.63706
G1 X90.032 Y83.396 E1.64761
G1 X90.190 Y83.084 E1.66125
G1 X90.411 Y82.811 E1.67498
G1 X90.683 Y82.592 E1.68862
G1 X90.919 Y82.464 E1.69911
G1 X91.250 Y82.356 E1.71274
G1 X91.596 Y82.319 E1.72632
G1 X91.865 Y82.340 E1.73687
G1 X92.202 Y82.431 E1.75051
G1 X92.516 Y82.590 E1.76424
G1 X92.789 Y82.811 E1.77798
G1 X93.010 Y83.084 E1.79170
G1 X93.168 Y83.396 E1.80535
G1 X93.245 Y83.654 E1.81589
G1 X93.281 Y84.000 E1.82947
G1 X93.245 Y84.346 E1.84305
G1 X93.168 Y84.604 E1.85359
G1 X93.010 Y84.916 E1.86723
G1 X92.789 Y85.189 E1.88096
G1 X92.556 Y85.377 E1.89264
G1 X92.522 Y85.760 F7800.000
G1 X92.737 Y85.960 F7800.000
G1 X92.826 Y86.083 E1.89856 F270.000
G1 X92.681 Y86.229 E1.90662
G1 X92.510 Y86.229 E1.91328
G1 X92.477 Y86.093 E1.91874
G1 X92.691 Y85.984 E1.92809
G1 X93.560 Y85.137 F7800.000
G1 X93.720 Y84.824 E1.94182 F900.000
G1 X93.827 Y84.461 E1.95661
G1 X93.875 Y84.000 E1.97473
G1 X93.827 Y83.539 E1.99284
G1 X93.720 Y83.176 E2.00764
G1 X93.508 Y82.761 E2.02584
G1 X93.209 Y82.391 E2.04442
G1 X92.839 Y82.092 E2.06301
G1 X92.416 Y81.876 E2.08160
G1 X91.966 Y81.755 E2.09980
G1 X91.588 Y81.726 E2.11460
G1 X91.127 Y81.774 E2.13272
G1 X90.684 Y81.918 E2.15090
G1 X90.353 Y82.098 E2.16564
G1 X89.991 Y82.391 E2.18383
G1 X89.692 Y82.761 E2.20241
G1 X89.480 Y83.176 E2.22061
G1 X89.373 Y83.539 E2.23541
G1 X89.325 Y84.000 E2.25352
G1 X89.373 Y84.461 E2.27164
G1 X89.480 Y84.824 E2.28643
G1 X89.692 Y85.239 E2.30463
G1 X89.991 Y85.609 E2.32322
G1 X90.353 Y85.902 E2.34141
G1 X90.708 Y86.095 E2.35722
G1 X90.674 Y86.229 E2.36261
G1 X69.310 Y86.229 E3.19736
G1 X69.277 Y86.093 E3.20282
G1 X69.639 Y85.908 E3.21869
G1 X70.001 Y85.615 E3.23688
G1 X70.235 Y85.341 E3.25097
G1 X70.446 Y85.010 E3.26630
G1 X70.625 Y84.477 E3.28827
G1 X70.675 Y84.000 E3.30701
G1 X70.627 Y83.539 E3.32513
G1 X70.520 Y83.176 E3.33993
G1 X70.308 Y82.761 E3.35813
G1 X70.009 Y82.391 E3.37672
G1 X69.639 Y82.092 E3.39530
G1 X69.216 Y81.876 E3.41389
G1 X68.767 Y81.755 E3.43202
G1 X68.388 Y81.726 E3.44688
G1 X67.927 Y81.774 E3.46501
G1 X67.484 Y81.918 E3.48319
G1 X67.153 Y82.098 E3.49793
G1 X66.791 Y82.391 E3.51612
G1 X66.492 Y82.761 E3.53470
G1 X66.280 Y83.176 E3.55290
G1 X66.173 Y83.539 E3.56770
G1 X66.125 Y84.000 E3.58581
G1 X66.173 Y84.461 E3.60393
G1 X66.280 Y84.824 E3.61873
G1 X66.440 Y85.137 E3.63245
G1 X66.317 Y85.226 E3.63837
G1 X65.771 Y84.681 E3.66854
G1 X65.771 Y78.319 E3.91708
G1 X70.319 Y73.771 E4.16840
G1 X89.681 Y73.771 E4.92487
G1 X94.229 Y78.319 E5.17619
G1 X94.229 Y84.681 E5.42473
G1 X93.683 Y85.226 E5.45489
G1 X93.603 Y85.168 E5.45876
G1 E4.45876 F1800.00000
G92 E0
G1 X70.378 Y84.000 F7800.000
G1 E1.00000 F1800.00000
G1 X70.335 Y84.414 E1.01626 F270.000
G1 X70.177 Y84.882 E1.03555
G1 X69.997 Y85.165 E1.04867
G1 X69.794 Y85.403 E1.06088
G1 X69.477 Y85.659 E1.07679
G1 X69.114 Y85.844 E1.09271
G1 X68.803 Y85.936 E1.10538
G1 X68.406 Y85.978 E1.12099
G1 X68.084 Y85.952 E1.13360
G1 X67.691 Y85.847 E1.14951
G1 X67.323 Y85.659 E1.16567
G1 X67.001 Y85.399 E1.18183
G1 X66.741 Y85.077 E1.19799
G1 X66.556 Y84.714 E1.21391
G1 X66.464 Y84.403 E1.22658
G1 X66.422 Y84.000 E1.24243
G1 X66.464 Y83.597 E1.25827
G1 X66.556 Y83.286 E1.27094
G1 X66.741 Y82.923 E1.28686
G1 X67.001 Y82.601 E1.30302
G1 X67.318 Y82.345 E1.31894
G1 X67.601 Y82.191 E1.33155
G1 X67.989 Y82.065 E1.34746
G1 X68.392 Y82.022 E1.36331
G1 X68.717 Y82.048 E1.37604
G1 X69.109 Y82.153 E1.39190
G1 X69.477 Y82.341 E1.40806
G1 X69.799 Y82.601 E1.42422
G1 X70.059 Y82.923 E1.44038
G1 X70.244 Y83.286 E1.45630
G1 X70.336 Y83.597 E1.46897
G1 X70.373 Y83.948 E1.48277
G1 X70.081 Y84.000 F7800.000
G1 X70.044 Y84.350 E1.49654 F270.000
G1 X69.908 Y84.753 E1.51315
G1 X69.759 Y84.989 E1.52405
G1 X69.587 Y85.190 E1.53439
G1 X69.316 Y85.410 E1.54803
G1 X69.005 Y85.568 E1.56167
G1 X68.746 Y85.645 E1.57222
G1 X68.402 Y85.681 E1.58570
G1 X68.135 Y85.660 E1.59619
G1 X67.798 Y85.569 E1.60983
G1 X67.484 Y85.410 E1.62356
G1 X67.211 Y85.189 E1.63729
G1 X66.990 Y84.916 E1.65102
G1 X66.832 Y84.604 E1.66466
G1 X66.755 Y84.346 E1.67521
G1 X66.719 Y84.000 E1.68879
G1 X66.755 Y83.654 E1.70236
G1 X66.832 Y83.396 E1.71291
G1 X66.990 Y83.084 E1.72655
G1 X67.211 Y82.811 E1.74028
G1 X67.483 Y82.592 E1.75392
G1 X67.719 Y82.464 E1.76441
G1 X68.050 Y82.356 E1.77804
G1 X68.396 Y82.319 E1.79163
G1 X68.667 Y82.341 E1.80223
G1 X69.002 Y82.431 E1.81581
G1 X69.316 Y82.590 E1.82954
G1 X69.589 Y82.811 E1.84327
G1 X69.810 Y83.084 E1.85700
G1 X69.968 Y83.396 E1.87065
G1 X70.045 Y83.654 E1.88119
G1 X70.076 Y83.948 E1.89272
G1 X70.378 Y84.186 F7800.000
G1 E0.89272 F1800.00000
G92 E0
G1 X67.523 Y86.093 F7800.000
G1 E1.00000 F1800.00000
G1 X67.490 Y86.229 E1.00546 F270.000
G1 X67.319 Y86.229 E1.01212
G1 X67.174 Y86.083 E1.02018
G1 X67.263 Y85.960 E1.02610
G1 X67.476 Y86.069 E1.03545
G1 X67.197 Y86.524 F7800.000
G1 X65.476 Y84.803 E1.13056 F900.000
G1 X65.476 Y78.197 E1.38867
G1 X70.197 Y73.476 E1.64956
G1 X89.803 Y73.476 E2.41561
G1 X94.524 Y78.197 E2.67649
G1 X94.524 Y84.803 E2.93460
G1 X92.803 Y86.524 E3.02972
G1 X67.250 Y86.524 E4.02815
G1 X67.075 Y86.820 F7800.000
G1 X65.180 Y84.925 E4.13283 F540.000
G1 X65.180 Y78.075 E4.40051
G1 X70.075 Y73.180 E4.67097
G1 X89.925 Y73.180 E5.44658
G1 X94.820 Y78.075 E5.71704
G1 X94.820 Y84.925 E5.98471
G1 X92.925 Y86.820 E6.08940
G1 X67.127 Y86.820 E7.09740
G1 X67.075 Y86.470 F7800.000
G1 X67.652 Y86.186 F7800.000
G1 X68.023 Y86.235 E7.12979 F360.000
G1 X68.398 Y86.251 E7.16236
G1 X68.848 Y86.229 E7.20135
G1 X69.148 Y86.186 E7.22762
G1 X67.101 Y85.932 F7800.000
G1 X66.782 Y85.645 E7.26479 F360.000
G1 X66.468 Y85.299 E7.30522
G1 X66.110 Y84.799 F7800.000
G1 X65.987 Y84.591 E7.31465 F360.000
G1 X65.948 Y84.003 E7.33769
G1 X65.974 Y83.494 E7.35758
G1 X66.033 Y83.088 E7.37361
G1 X66.100 Y82.804 E7.38504
G1 X65.940 Y82.444 F7800.000
G1 X66.112 Y82.616 E7.39465 F360.000
G1 X66.473 Y82.556 E7.40909
G1 X65.940 Y82.022 E7.43884
G1 X65.940 Y81.600 E7.45547
G1 X66.662 Y82.323 E7.49575
G1 X66.889 Y82.128 E7.50754
G1 X65.940 Y81.179 E7.56045
G1 X65.940 Y80.757 E7.57708
G1 X67.128 Y81.945 E7.64333
G1 X67.401 Y81.797 E7.65559
G1 X65.940 Y80.335 E7.73708
G1 X65.940 Y79.913 E7.75371
G1 X67.711 Y81.684 E7.85246
G1 X68.047 Y81.598 E7.86613
G1 X65.940 Y79.491 E7.98360
G1 X65.940 Y79.069 E8.00023
G1 X68.428 Y81.558 E8.13898
G1 X68.886 Y81.594 E8.15706
G1 X65.940 Y78.648 E8.32131
G1 X66.017 Y78.303 E8.33522
G1 X69.512 Y81.798 E8.53005
G1 E7.53005 F1800.00000
G92 E0
G1 X69.978 Y86.060 F7800.000
G1 E1.00000 F1800.00000
G1 X69.844 Y85.927 E1.00745 F360.000
G1 X70.077 Y85.738 E1.01927
G1 X70.400 Y86.060 E1.03724
G1 X70.821 Y86.060 E1.05387
G1 X70.275 Y85.514 E1.08432
G1 X70.452 Y85.269 E1.09623
G1 X71.243 Y86.060 E1.14032
G1 X71.665 Y86.060 E1.15695
G1 X70.608 Y85.003 E1.21587
G1 X70.715 Y84.688 E1.22899
G1 X72.087 Y86.060 E1.30550
G1 X72.509 Y86.060 E1.32213
G1 X70.802 Y84.353 E1.41731
G1 X70.842 Y83.971 E1.43244
G1 X72.931 Y86.060 E1.54889
G1 X73.352 Y86.060 E1.56552
G1 X70.800 Y83.508 E1.70780
G1 X70.602 Y82.888 E1.73346
G1 X73.774 Y86.060 E1.91030
G1 X74.196 Y86.060 E1.92693
G1 X66.228 Y78.092 E2.37115
G1 X66.439 Y77.882 E2.38291
G1 X74.618 Y86.060 E2.83889
G1 X75.040 Y86.060 E2.85552
G1 X66.650 Y77.671 E3.32325
G1 X66.861 Y77.460 E3.33501
G1 X75.461 Y86.060 E3.81451
G1 X75.883 Y86.060 E3.83114
G1 X67.072 Y77.249 E4.32239
G1 X67.283 Y77.038 E4.33415
G1 X76.305 Y86.060 E4.83716
G1 X76.727 Y86.060 E4.85379
G1 X67.494 Y76.827 E5.36856
G1 X67.705 Y76.616 E5.38032
G1 X77.149 Y86.060 E5.90685
G1 X77.571 Y86.060 E5.92348
G1 X67.915 Y76.405 E6.46176
G1 X68.126 Y76.194 E6.47352
G1 X77.992 Y86.060 E7.02357
G1 X78.414 Y86.060 E7.04020
G1 X68.337 Y75.983 E7.60200
G1 X68.548 Y75.772 E7.61376
G1 X78.836 Y86.060 E8.18733
G1 X79.258 Y86.060 E8.20395
G1 X68.759 Y75.562 E8.78928
G1 X68.970 Y75.351 E8.80104
G1 X79.680 Y86.060 E9.39812
G1 X80.101 Y86.060 E9.41475
G1 X69.181 Y75.140 E10.02358
G1 X69.392 Y74.929 E10.03534
G1 X80.523 Y86.060 E10.65594
G1 X80.945 Y86.060 E10.67257
G1 X69.603 Y74.718 E11.30493
G1 X69.814 Y74.507 E11.31669
G1 X81.367 Y86.060 E11.96080
G1 X81.789 Y86.060 E11.97743
G1 X70.025 Y74.296 E12.63330
G1 X70.235 Y74.085 E12.64506
G1 X82.211 Y86.060 E13.31269
G1 X82.632 Y86.060 E13.32932
G1 X70.512 Y73.940 E14.00506
G1 X70.934 Y73.940 E14.02169
G1 X83.054 Y86.060 E14.69742
G1 X83.476 Y86.060 E14.71405
G1 X71.356 Y73.940 E15.38979
G1 X71.777 Y73.940 E15.40642
G1 X83.898 Y86.060 E16.08216
G1 X84.320 Y86.060 E16.09878
G1 X72.199 Y73.940 E16.77452
G1 X72.621 Y73.940 E16.79115
G1 X84.741 Y86.060 E17.46689
G1 X85.163 Y86.060 E17.48351
G1 X73.043 Y73.940 E18.15925
G1 X73.465 Y73.940 E18.17588
G1 X85.585 Y86.060 E18.85162
G1 X86.007 Y86.060 E18.86825
G1 X73.886 Y73.940 E19.54398
G1 X74.308 Y73.940 E19.56061
G1 X86.429 Y86.060 E20.23635
G1 X86.851 Y86.060 E20.25298
G1 X74.730 Y73.940 E20.92871
G1 X75.152 Y73.940 E20.94534
G1 X87.272 Y86.060 E21.62108
G1 X87.694 Y86.060 E21.63771
G1 X75.574 Y73.940 E22.31344
G1 X75.996 Y73.940 E22.33007
G1 X88.116 Y86.060 E23.00581
G1 X88.538 Y86.060 E23.02244
G1 X76.417 Y73.940 E23.69817
G1 X76.839 Y73.940 E23.71480
G1 X88.960 Y86.060 E24.39054
G1 X89.381 Y86.060 F7800.000
G1 X77.261 Y73.940 E25.06627 F360.000
G1 X77.683 Y73.940 E25.08290
G1 X89.803 Y86.060 E25.75864
G1 X89.524 Y85.359 F7800.000
G1 X78.105 Y73.940 E26.39528 F360.000
G1 X78.526 Y73.940 E26.41191
G1 X89.230 Y84.643 E27.00863
G1 X89.165 Y84.156 E27.02799
G1 X78.948 Y73.940 E27.59757
G1 X79.370 Y73.940 E27.61419
G1 X89.187 Y83.756 E28.16149
G1 X89.254 Y83.401 E28.17574
G1 X79.792 Y73.940 E28.70324
G1 X80.214 Y73.940 E28.71987
G1 X89.361 Y83.087 E29.22982
G1 X89.503 Y82.807 E29.24219
G1 X80.636 Y73.940 E29.73656
G1 X81.057 Y73.940 E29.75319
G1 X89.673 Y82.556 E30.23355
G1 X89.862 Y82.323 E30.24538
G1 X81.479 Y73.940 E30.71274
G1 X81.901 Y73.940 E30.72937
G1 X90.089 Y82.128 E31.18586
G1 X90.328 Y81.945 E31.19772
G1 X82.323 Y73.940 E31.64403
G1 X82.745 Y73.940 E31.66066
G1 X90.601 Y81.797 E32.09869
G1 X90.911 Y81.684 E32.11167
G1 X83.166 Y73.940 E32.54344
G1 X83.588 Y73.940 E32.56007
G1 X91.247 Y81.598 E32.98705
G1 X91.628 Y81.558 E33.00218
G1 X84.010 Y73.940 E33.42691
G1 X84.432 Y73.940 E33.44354
G1 X92.086 Y81.594 E33.87027
G1 X92.712 Y81.798 E33.89622
G1 X84.854 Y73.940 E34.33432
G1 X85.276 Y73.940 E34.35095
G1 X93.964 Y82.628 E34.83535
G1 X94.060 Y82.303 E34.84873
G1 X85.697 Y73.940 E35.31498
G1 X86.119 Y73.940 E35.33160
G1 X94.060 Y81.881 E35.77433
G1 X94.060 Y81.459 E35.79096
G1 X86.541 Y73.940 E36.21017
G1 X86.963 Y73.940 E36.22680
G1 X94.060 Y81.037 E36.62249
G1 X94.060 Y80.615 E36.63912
G1 X87.385 Y73.940 E37.01129
G1 X87.806 Y73.940 E37.02792
G1 X94.060 Y80.194 E37.37658
G1 X94.060 Y79.772 E37.39321
G1 X88.228 Y73.940 E37.71835
G1 X88.650 Y73.940 E37.73498
G1 X94.060 Y79.350 E38.03660
G1 X94.060 Y78.928 E38.05323
G1 X89.072 Y73.940 E38.33133
G1 X89.494 Y73.940 E38.34796
G1 X94.060 Y78.506 E38.60255
G1 X93.900 Y82.804 F7800.000
G1 X93.967 Y83.088 E38.61398 F360.000
G1 X94.026 Y83.494 E38.63001
G1 X94.052 Y84.003 E38.64991
G1 X94.013 Y84.591 E38.67294
G1 X93.890 Y84.799 E38.68237
G1 X93.532 Y85.299 F7800.000
G1 X93.245 Y85.618 E38.71952 F360.000
G1 X92.899 Y85.932 E38.75997
G1 X92.348 Y86.186 F7800.000
G1 X91.977 Y86.235 E38.79236 F360.000
G1 X91.602 Y86.251 E38.82494
G1 X91.142 Y86.228 E38.86480
G1 X90.839 Y86.182 E38.89139
M104 S250 ; set temperature
M140 S110 ; wait for bed temperature to be reached
G1 E37.89139 F1800.00000
G92 E0
G1 Z0.550 F7800.000
G1 X67.676 Y85.884 F7800.000
G1 E1.00000 F1800.00000
G1 X67.301 Y85.693 E1.01787 F900.000
G1 X66.973 Y85.427 E1.03576
G1 X66.707 Y85.099 E1.05365
G1 X66.518 Y84.729 E1.07126
G1 X66.424 Y84.408 E1.08545
G1 X66.382 Y84.000 E1.10283
G1 X66.424 Y83.592 E1.12022
G1 X66.518 Y83.271 E1.13440
G1 X66.707 Y82.901 E1.15202
G1 X66.973 Y82.573 E1.16990
G1 X67.295 Y82.311 E1.18750
G1 X67.586 Y82.154 E1.20150
G1 X67.980 Y82.026 E1.21908
G1 X68.388 Y81.982 E1.23649
G1 X68.722 Y82.008 E1.25066
G1 X69.123 Y82.116 E1.26828
G1 X69.499 Y82.307 E1.28617
G1 X69.827 Y82.573 E1.30406
G1 X70.093 Y82.901 E1.32194
G1 X70.282 Y83.271 E1.33956
G1 X70.376 Y83.592 E1.35374
G1 X70.418 Y84.000 E1.37113
G1 X70.376 Y84.408 E1.38852
G1 X70.282 Y84.729 E1.40270
G1 X70.093 Y85.099 E1.42032
G1 X69.827 Y85.427 E1.43820
G1 X69.499 Y85.693 E1.45609
G1 X69.129 Y85.881 E1.47371
G1 X68.808 Y85.976 E1.48789
G1 X68.406 Y86.018 E1.50502
G1 X68.073 Y85.991 E1.51919
G1 X67.727 Y85.898 E1.53437
G1 X67.799 Y85.565 F7800.000
G1 X67.487 Y85.406 E1.54580 F900.000
G1 X67.215 Y85.185 E1.55724
G1 X66.994 Y84.913 E1.56867
G1 X66.836 Y84.603 E1.58004
G1 X66.760 Y84.342 E1.58891
G1 X66.724 Y84.000 E1.60013
G1 X66.760 Y83.658 E1.61134
G1 X66.836 Y83.397 E1.62021
G1 X66.994 Y83.087 E1.63158
G1 X67.215 Y82.815 E1.64302
G1 X67.485 Y82.596 E1.65438
G1 X67.721 Y82.468 E1.66311
G1 X68.051 Y82.361 E1.67447
G1 X68.393 Y82.324 E1.68569
G1 X68.664 Y82.345 E1.69456
G1 X69.001 Y82.435 E1.70593
G1 X69.313 Y82.594 E1.71736
G1 X69.585 Y82.815 E1.72880
G1 X69.806 Y83.087 E1.74024
G1 X69.964 Y83.397 E1.75160
G1 X70.040 Y83.658 E1.76047
G1 X70.076 Y84.000 E1.77169
G1 X70.040 Y84.342 E1.78291
G1 X69.964 Y84.603 E1.79178
G1 X69.806 Y84.913 E1.80314
G1 X69.585 Y85.185 E1.81458
G1 X69.313 Y85.406 E1.82601
G1 X69.003 Y85.564 E1.83738
G1 X68.742 Y85.640 E1.84625
G1 X68.402 Y85.676 E1.85740
G1 X68.131 Y85.654 E1.86627
G1 X67.850 Y85.578 E1.87578
G1 X67.520 Y85.775 F7800.000
G1 X89.582 Y84.000 F7800.000
G1 X89.624 Y83.592 E1.89317 F900.000
G1 X89.718 Y83.271 E1.90735
G1 X89.907 Y82.901 E1.92497
G1 X90.173 Y82.573 E1.94285
G1 X90.495 Y82.311 E1.96045
G1 X90.786 Y82.154 E1.97444
G1 X91.180 Y82.026 E1.99203
G1 X91.588 Y81.982 E2.00943
G1 X91.922 Y82.008 E2.02361
