; generated by Slic3r 1.2.9 on 2019-01-01 at 14:16:46

; external perimeters extrusion width = 0.35mm
; perimeters extrusion width = 0.39mm
; infill extrusion width = 0.39mm
; solid infill extrusion width = 0.39mm
; top infill extrusion width = 0.39mm

M107
M190 S100 ; set bed temperature
M104 S230 ; set temperature
G28 ; home all axes
G1 Z5 F5000 ; lift nozzle
M109 S230 ; wait for temperature to be reached
G21 ; set units to millimeters
G90 ; use absolute coordinates
M82 ; use absolute distances for extrusion
G92 E0
G1 E-1.00000 F1800.00000
G92 E0
G1 Z0.350 F7800.000
G1 X52.568 Y40.527 F7800.000
G1 E1.00000 F1800.00000
G1 X54.310 Y39.112 E1.11934 F1080.000
G1 X57.375 Y38.323 E1.28766
G1 X78.875 Y38.323 E2.43106
G1 X81.084 Y38.720 E2.55040
G1 X83.016 Y39.861 E2.66975
G1 X83.989 Y40.912 E2.74589
G1 X107.739 Y73.244 E4.87940
G1 X108.726 Y75.259 E4.99875
G1 X108.970 Y77.000 E5.09225
G1 X108.970 Y86.000 E5.57088
G1 X108.573 Y88.209 E5.69022
G1 X107.556 Y89.993 E5.79943
G1 X83.806 Y119.325 E7.80658
G1 X82.108 Y120.792 E7.92593
G1 X80.005 Y121.575 E8.04527
G1 X78.875 Y121.677 E8.10561
G1 X57.375 Y121.677 E9.24901
G1 X55.166 Y121.280 E9.36836
G1 X53.234 Y120.139 E9.48770
G1 X51.819 Y118.397 E9.60704
G1 X51.030 Y115.332 E9.77536
G1 X51.030 Y44.668 E13.53337
G1 X51.427 Y42.459 E13.65272
G1 X52.541 Y40.572 E13.76927
G1 E12.76927 F1800.00000
G92 E0
G1 X77.975 Y90.298 F7800.000
G1 E1.00000 F1800.00000
G1 X77.975 Y114.432 E2.28350 F540.000
G1 X58.275 Y114.432 E3.33119
G1 X58.275 Y90.298 E4.61469
G1 X77.923 Y90.298 E5.65960
G1 X78.320 Y89.953 F7800.000
G1 X78.320 Y114.777 E6.97977 F540.000
G1 X57.930 Y114.777 E8.06416
G1 X57.930 Y89.953 E9.38433
G1 X78.268 Y89.953 E10.46592
G1 X78.665 Y89.608 F7800.000
G1 X78.665 Y115.122 E11.82279 F324.000
G1 X57.585 Y115.122 E12.94385
G1 X57.585 Y89.608 E14.30071
G1 X78.612 Y89.608 E15.41899
G1 X78.490 Y89.911 F7800.000
G1 X77.775 Y90.684 F7800.000
G1 X77.589 Y90.498 E15.43307 F360.000
G1 X77.099 Y90.498 E15.45929
G1 X77.775 Y91.175 E15.51046
G1 X77.775 Y91.665 E15.53668
G1 X76.608 Y90.498 E15.62493
G1 X76.118 Y90.498 E15.65115
G1 X77.775 Y92.155 E15.77647
G1 X77.775 Y92.646 E15.80269
G1 X75.627 Y90.498 E15.96510
G1 X75.137 Y90.498 E15.99131
G1 X77.775 Y93.136 E16.19080
G1 X77.775 Y93.626 E16.21702
G1 X74.647 Y90.498 E16.45358
G1 X74.156 Y90.498 E16.47980
G1 X77.775 Y94.117 E16.75344
G1 X77.775 Y94.607 E16.77966
G1 X73.666 Y90.498 E17.09038
G1 X73.176 Y90.498 E17.11660
G1 X77.775 Y95.098 E17.46440
G1 X77.775 Y95.588 E17.49062
G1 X72.685 Y90.498 E17.87550
G1 X72.195 Y90.498 E17.90172
G1 X77.775 Y96.078 E18.32368
G1 X77.775 Y96.569 E18.34990
G1 X71.704 Y90.498 E18.80893
G1 X71.214 Y90.498 E18.83515
G1 X77.775 Y97.059 E19.33127
G1 X77.775 Y97.549 E19.35749
G1 X70.724 Y90.498 E19.89068
G1 X70.233 Y90.498 E19.91690
G1 X77.775 Y98.040 E20.48718
G1 X77.775 Y98.530 E20.51340
G1 X69.743 Y90.498 E21.12075
G1 X69.253 Y90.498 E21.14697
G1 X77.775 Y99.021 E21.79140
G1 X77.775 Y99.511 E21.81762
G1 X68.762 Y90.498 E22.49913
G1 X68.272 Y90.498 E22.52535
G1 X77.775 Y100.001 E23.24394
G1 X77.775 Y100.492 E23.27016
G1 X67.782 Y90.498 E24.02583
G1 X67.291 Y90.498 E24.05205
G1 X77.775 Y100.982 E24.84480
G1 X77.775 Y101.472 E24.87102
G1 X66.801 Y90.498 E25.70084
G1 X66.310 Y90.498 E25.72706
G1 X77.775 Y101.963 E26.59397
G1 X77.775 Y102.453 E26.62019
G1 X65.820 Y90.498 E27.52417
G1 X65.330 Y90.498 E27.55039
G1 X77.775 Y102.943 E28.49146
G1 X77.775 Y103.434 E28.51768
G1 X64.839 Y90.498 E29.49582
G1 X64.349 Y90.498 E29.52204
G1 X77.775 Y103.924 E30.53726
G1 X77.775 Y104.415 E30.56348
G1 X63.859 Y90.498 E31.61579
G1 X63.368 Y90.498 E31.64200
G1 X77.775 Y104.905 E32.73139
G1 X77.775 Y105.395 E32.75760
G1 X62.878 Y90.498 E33.88406
G1 X62.387 Y90.498 E33.91028
G1 X77.775 Y105.886 E35.07382
G1 X77.775 Y106.376 E35.10004
G1 X61.897 Y90.498 E36.30066
G1 X61.407 Y90.498 E36.32688
G1 X77.775 Y106.866 E37.56458
G1 X77.775 Y107.357 E37.59080
G1 X60.916 Y90.498 E38.86557
G1 X60.426 Y90.498 E38.89179
G1 X77.775 Y107.847 E40.20365
G1 X77.775 Y108.338 E40.22987
G1 X59.936 Y90.498 E41.57880
G1 X59.445 Y90.498 E41.60502
G1 X77.775 Y108.828 E42.99103
G1 X77.775 Y109.318 E43.01725
G1 X58.955 Y90.498 E44.44034
G1 X58.490 Y90.523 E44.46526
G1 X77.775 Y109.809 E45.92353
G1 X77.775 Y110.299 E45.94975
G1 X58.475 Y90.999 E47.40914
G1 X58.475 Y91.489 E47.43536
G1 X77.775 Y110.789 E48.89476
G1 X77.775 Y111.280 E48.92097
G1 X58.475 Y91.979 E50.38037
G1 X58.475 Y92.470 E50.40659
G1 X77.775 Y111.770 E51.86598
G1 X77.775 Y112.261 E51.89220
G1 X58.475 Y92.960 E53.35160
G1 X58.475 Y93.450 E53.37782
G1 X77.775 Y112.751 E54.83721
G1 X77.775 Y113.241 E54.86343
G1 X58.475 Y93.941 E56.32283
G1 X58.475 Y94.431 E56.34904
G1 X77.775 Y113.732 E57.80844
G1 X77.760 Y114.207 E57.83387
G1 X58.475 Y94.922 E59.29214
G1 X58.475 Y95.412 E59.31836
G1 X77.295 Y114.232 E60.74145
G1 X76.805 Y114.232 E60.76767
G1 X58.475 Y95.902 E62.15368
G1 X58.475 Y96.393 E62.17990
G1 X76.314 Y114.232 E63.52883
G1 X75.824 Y114.232 E63.55505
G1 X58.475 Y96.883 E64.86690
G1 X58.475 Y97.373 E64.89312
G1 X75.334 Y114.232 E66.16790
G1 X74.843 Y114.232 E66.19411
G1 X58.475 Y97.864 E67.43181
G1 X58.475 Y98.354 E67.45803
G1 X74.353 Y114.232 E68.65864
G1 X73.863 Y114.232 E68.68486
G1 X58.475 Y98.844 E69.84840
G1 X58.475 Y99.335 E69.87462
G1 X73.372 Y114.232 E71.00107
G1 X72.882 Y114.232 E71.02729
G1 X58.475 Y99.825 E72.11667
G1 X58.475 Y100.316 E72.14289
G1 X72.391 Y114.232 E73.19519
G1 X71.901 Y114.232 E73.22141
G1 X58.475 Y100.806 E74.23663
G1 X58.475 Y101.296 E74.26285
G1 X71.411 Y114.232 E75.24099
G1 X70.920 Y114.232 E75.26721
G1 X58.475 Y101.787 E76.20827
G1 X58.475 Y102.277 E76.23449
G1 X70.430 Y114.232 E77.13847
G1 X69.940 Y114.232 E77.16469
G1 X58.475 Y102.767 E78.03159
G1 X58.475 Y103.258 E78.05781
G1 X69.449 Y114.232 E78.88764
G1 X68.959 Y114.232 E78.91385
G1 X58.475 Y103.748 E79.70660
G1 X58.475 Y104.239 E79.73282
G1 X68.468 Y114.232 E80.48849
G1 X67.978 Y114.232 E80.51470
G1 X58.475 Y104.729 E81.23329
G1 X58.475 Y105.219 E81.25951
G1 X67.488 Y114.232 E81.94102
G1 X66.997 Y114.232 E81.96724
G1 X58.475 Y105.710 E82.61167
G1 X58.475 Y106.200 E82.63789
G1 X66.507 Y114.232 E83.24524
G1 X66.017 Y114.232 E83.27146
G1 X58.475 Y106.690 E83.84173
G1 X58.475 Y107.181 E83.86795
G1 X65.526 Y114.232 E84.40114
G1 X65.036 Y114.232 E84.42736
G1 X58.475 Y107.671 E84.92347
G1 X58.475 Y108.162 E84.94969
G1 X64.545 Y114.232 E85.40872
G1 X64.055 Y114.232 E85.43494
G1 X58.475 Y108.652 E85.85690
G1 X58.475 Y109.142 E85.88312
G1 X63.565 Y114.232 E86.26799
G1 X63.074 Y114.232 E86.29421
G1 X58.475 Y109.633 E86.64201
G1 X58.475 Y110.123 E86.66823
G1 X62.584 Y114.232 E86.97894
G1 X62.094 Y114.232 E87.00516
G1 X58.475 Y110.613 E87.27880
G1 X58.475 Y111.104 E87.30502
G1 X61.603 Y114.232 E87.54158
G1 X61.113 Y114.232 E87.56780
G1 X58.475 Y111.594 E87.76728
G1 X58.475 Y112.084 E87.79350
G1 X60.623 Y114.232 E87.95590
G1 X60.132 Y114.232 E87.98212
G1 X58.475 Y112.575 E88.10744
G1 X58.475 Y113.065 E88.13366
G1 X59.642 Y114.232 E88.22191
G1 X59.151 Y114.232 E88.24812
G1 X58.475 Y113.556 E88.29929
G1 X58.475 Y114.046 E88.32551
G1 X58.661 Y114.232 E88.33959
G1 E87.33959 F1800.00000
G92 E0
G1 X77.975 Y71.038 F7800.000
G1 E1.00000 F1800.00000
G1 X58.275 Y71.038 E2.04770 F540.000
G1 X58.275 Y45.568 E3.40224
G1 X77.975 Y45.568 E4.44994
G1 X77.975 Y70.986 E5.80170
G1 X78.320 Y71.383 F7800.000
G1 X57.930 Y71.383 E6.88608 F540.000
G1 X57.930 Y45.223 E8.27731
G1 X78.320 Y45.223 E9.36169
G1 X78.320 Y71.330 E10.75013
G1 X78.665 Y71.728 F7800.000
G1 X57.585 Y71.728 E11.87119 F324.000
G1 X57.585 Y44.878 E13.29910
G1 X78.665 Y44.878 E14.42017
G1 X78.665 Y71.675 E15.84529
G1 X78.362 Y71.553 F7800.000
G1 X58.475 Y70.652 F7800.000
G1 X58.661 Y70.838 E15.85933 F360.000
G1 X59.150 Y70.838 E15.88539
G1 X58.475 Y70.163 E15.93629
G1 X58.475 Y69.674 E15.96234
G1 X59.639 Y70.838 E16.05009
G1 X60.128 Y70.838 E16.07615
G1 X58.475 Y69.185 E16.20075
G1 X58.475 Y68.696 E16.22681
G1 X60.617 Y70.838 E16.38826
G1 X61.105 Y70.838 E16.41432
G1 X58.475 Y68.207 E16.61262
G1 X58.475 Y67.719 E16.63868
G1 X61.594 Y70.838 E16.87384
G1 X62.083 Y70.838 E16.89990
G1 X58.475 Y67.230 E17.17191
G1 X58.475 Y66.741 E17.19796
G1 X62.572 Y70.838 E17.50683
G1 X63.061 Y70.838 E17.53288
G1 X58.475 Y66.252 E17.87860
G1 X58.475 Y65.763 E17.90466
G1 X63.550 Y70.838 E18.28722
G1 X64.039 Y70.838 E18.31328
G1 X58.475 Y65.274 E18.73270
G1 X58.475 Y64.785 E18.75876
G1 X64.527 Y70.838 E19.21503
G1 X65.016 Y70.838 E19.24109
G1 X58.475 Y64.297 E19.73421
G1 X58.475 Y63.808 E19.76027
G1 X65.505 Y70.838 E20.29025
G1 X65.994 Y70.838 E20.31630
G1 X58.475 Y63.319 E20.88313
G1 X58.475 Y62.830 E20.90919
G1 X66.483 Y70.838 E21.51287
G1 X66.972 Y70.838 E21.53893
G1 X58.475 Y62.341 E22.17946
G1 X58.475 Y61.852 E22.20552
G1 X67.461 Y70.838 E22.88291
G1 X67.950 Y70.838 E22.90896
G1 X58.475 Y61.363 E23.62320
G1 X58.475 Y60.874 E23.64926
G1 X68.438 Y70.838 E24.40035
G1 X68.927 Y70.838 E24.42641
G1 X58.475 Y60.386 E25.21435
G1 X58.475 Y59.897 E25.24041
G1 X69.416 Y70.838 E26.06521
G1 X69.905 Y70.838 E26.09126
G1 X58.475 Y59.408 E26.95291
G1 X58.475 Y58.919 E26.97897
G1 X70.394 Y70.838 E27.87747
G1 X70.883 Y70.838 E27.90353
G1 X58.475 Y58.430 E28.83888
G1 X58.475 Y57.941 E28.86494
G1 X71.372 Y70.838 E29.83714
G1 X71.860 Y70.838 E29.86320
G1 X58.475 Y57.452 E30.87226
G1 X58.475 Y56.963 E30.89832
G1 X72.349 Y70.838 E31.94423
G1 X72.838 Y70.838 E31.97028
G1 X58.475 Y56.475 E33.05305
G1 X58.475 Y55.986 E33.07910
G1 X73.327 Y70.838 E34.19872
G1 X73.816 Y70.838 E34.22478
G1 X58.475 Y55.497 E35.38124
G1 X58.475 Y55.008 E35.40730
G1 X74.305 Y70.838 E36.60062
G1 X74.794 Y70.838 E36.62668
G1 X58.475 Y54.519 E37.85685
G1 X58.475 Y54.030 E37.88291
G1 X75.283 Y70.838 E39.14993
G1 X75.771 Y70.838 E39.17599
G1 X58.475 Y53.541 E40.47987
G1 X58.475 Y53.053 E40.50592
G1 X76.260 Y70.838 E41.84665
G1 X76.749 Y70.838 E41.87271
G1 X58.475 Y52.564 E43.25029
G1 X58.475 Y52.075 E43.27635
G1 X77.238 Y70.838 E44.69078
G1 X77.727 Y70.838 E44.71684
G1 X58.475 Y51.586 E46.16813
G1 X58.475 Y51.097 E46.19419
G1 X77.775 Y70.398 E47.64911
G1 X77.775 Y69.909 E47.67517
G1 X58.475 Y50.608 E49.13010
G1 X58.475 Y50.119 E49.15616
G1 X77.775 Y69.420 E50.61108
G1 X77.775 Y68.931 E50.63714
G1 X58.475 Y49.630 E52.09207
G1 X58.475 Y49.142 E52.11813
G1 X77.775 Y68.442 E53.57306
G1 X77.775 Y67.953 E53.59912
G1 X58.475 Y48.653 E55.05404
G1 X58.475 Y48.164 E55.08010
G1 X77.775 Y67.464 E56.53503
G1 X77.775 Y66.975 E56.56109
G1 X58.475 Y47.675 E58.01602
G1 X58.475 Y47.186 E58.04207
G1 X77.775 Y66.487 E59.49700
G1 X77.775 Y65.998 E59.52306
G1 X58.475 Y46.697 E60.97799
G1 X58.475 Y46.208 E61.00405
G1 X77.775 Y65.509 E62.45897
G1 X77.775 Y65.020 E62.48503
G1 X58.523 Y45.768 E63.93632
G1 X59.012 Y45.768 E63.96238
G1 X77.775 Y64.531 E65.37682
G1 X77.775 Y64.042 E65.40287
G1 X59.501 Y45.768 E66.78046
G1 X59.990 Y45.768 E66.80652
G1 X77.775 Y63.553 E68.14725
G1 X77.775 Y63.064 E68.17331
G1 X60.478 Y45.768 E69.47719
G1 X60.967 Y45.768 E69.50324
G1 X77.775 Y62.576 E70.77027
G1 X77.775 Y62.087 E70.79633
G1 X61.456 Y45.768 E72.02650
G1 X61.945 Y45.768 E72.05256
G1 X77.775 Y61.598 E73.24588
G1 X77.775 Y61.109 E73.27194
G1 X62.434 Y45.768 E74.42841
G1 X62.923 Y45.768 E74.45447
G1 X77.775 Y60.620 E75.57409
G1 X77.775 Y60.131 E75.60015
G1 X63.412 Y45.768 E76.68291
G1 X63.901 Y45.768 E76.70897
G1 X77.775 Y59.642 E77.75488
G1 X77.775 Y59.154 E77.78094
G1 X64.389 Y45.768 E78.79000
G1 X64.878 Y45.768 E78.81606
G1 X77.775 Y58.665 E79.78827
G1 X77.775 Y58.176 E79.81433
G1 X65.367 Y45.768 E80.74968
G1 X65.856 Y45.768 E80.77574
G1 X77.775 Y57.687 E81.67424
G1 X77.775 Y57.198 E81.70030
G1 X66.345 Y45.768 E82.56195
G1 X66.834 Y45.768 E82.58801
G1 X77.775 Y56.709 E83.41281
G1 X77.775 Y56.220 E83.43887
G1 X67.323 Y45.768 E84.22681
G1 X67.812 Y45.768 E84.25287
G1 X77.775 Y55.731 E85.00396
G1 X77.775 Y55.243 E85.03002
G1 X68.300 Y45.768 E85.74426
G1 X68.789 Y45.768 E85.77032
G1 X77.775 Y54.754 E86.44771
G1 X77.775 Y54.265 E86.47377
G1 X69.278 Y45.768 E87.11431
G1 X69.767 Y45.768 E87.14036
G1 X77.775 Y53.776 E87.74405
G1 X77.775 Y53.287 E87.77011
G1 X70.256 Y45.768 E88.33694
G1 X70.745 Y45.768 E88.36300
G1 X77.775 Y52.798 E88.89298
G1 X77.775 Y52.309 E88.91904
G1 X71.234 Y45.768 E89.41216
G1 X71.722 Y45.768 E89.43822
G1 X77.775 Y51.821 E89.89449
G1 X77.775 Y51.332 E89.92055
G1 X72.211 Y45.768 E90.33997
G1 X72.700 Y45.768 E90.36603
G1 X77.775 Y50.843 E90.74860
G1 X77.775 Y50.354 E90.77466
G1 X73.189 Y45.768 E91.12038
G1 X73.678 Y45.768 E91.14644
G1 X77.775 Y49.865 E91.45530
G1 X77.775 Y49.376 E91.48136
G1 X74.167 Y45.768 E91.75337
G1 X74.656 Y45.768 E91.77943
G1 X77.775 Y48.887 E92.01459
G1 X77.775 Y48.398 E92.04065
G1 X75.145 Y45.768 E92.23896
G1 X75.633 Y45.768 E92.26502
G1 X77.775 Y47.910 E92.42647
G1 X77.775 Y47.421 E92.45253
G1 X76.122 Y45.768 E92.57713
G1 X76.611 Y45.768 E92.60319
G1 X77.775 Y46.932 E92.69094
G1 X77.775 Y46.443 E92.71700
G1 X77.100 Y45.768 E92.76790
G1 X77.589 Y45.768 E92.79396
G1 X77.775 Y45.954 E92.80800
G1 E91.80800 F1800.00000
G92 E0
G1 Z0.350 F7800.000
G1 X95.283 Y77.191 F7800.000
G1 E1.00000 F1800.00000
G1 X96.861 Y76.877 E1.08554 F270.000
G1 X98.439 Y77.191 E1.17109
G1 X99.779 Y78.087 E1.25681
G1 X100.670 Y79.423 E1.34220
G1 X100.983 Y81.000 E1.42773
G1 X100.670 Y82.578 E1.51327
G1 X99.776 Y83.915 E1.59882
G1 X98.439 Y84.809 E1.68436
G1 X96.861 Y85.122 E1.76990
G1 X95.283 Y84.809 E1.85545
G1 X93.946 Y83.915 E1.94099
G1 X93.052 Y82.578 E2.02653
G1 X92.739 Y81.000 E2.11208
G1 X93.052 Y79.422 E2.19762
G1 X93.946 Y78.085 E2.28316
G1 X95.240 Y77.220 E2.36591
G1 X95.418 Y77.516 F7800.000
G1 X96.861 Y77.229 E2.44416 F270.000
G1 X98.304 Y77.516 E2.52241
G1 X99.530 Y78.335 E2.60083
G1 X100.345 Y79.557 E2.67892
G1 X100.632 Y81.000 E2.75716
G1 X100.345 Y82.443 E2.83541
G1 X99.527 Y83.666 E2.91365
G1 X98.304 Y84.484 E2.99190
G1 X96.861 Y84.771 E3.07015
G1 X95.418 Y84.484 E3.14839
G1 X94.195 Y83.666 E3.22664
G1 X93.377 Y82.443 E3.30489
G1 X93.090 Y81.000 E3.38313
G1 X93.377 Y79.557 E3.46138
G1 X94.195 Y78.334 E3.53963
G1 X95.374 Y77.545 E3.61508
G1 X95.486 Y77.173 F7800.000
G1 X89.525 Y74.900 F7800.000
G1 X99.252 Y74.900 E4.13240 F540.000
G1 X101.725 Y77.373 E4.31839
G1 X101.725 Y85.100 E4.72935
G1 X98.887 Y85.100 E4.88027
G1 X98.843 Y84.953 E4.88843
G1 X100.025 Y84.164 E4.96402
G1 X100.995 Y82.712 E5.05686
G1 X101.335 Y81.000 E5.14970
G1 X100.995 Y79.288 E5.24252
G1 X100.028 Y77.838 E5.33520
G1 X98.573 Y76.866 E5.42823
G1 X96.861 Y76.526 E5.52107
G1 X95.149 Y76.866 E5.61391
G1 X93.697 Y77.836 E5.70675
G1 X92.727 Y79.288 E5.79960
G1 X92.387 Y81.000 E5.89243
G1 X92.727 Y82.712 E5.98527
G1 X93.697 Y84.164 E6.07812
G1 X94.879 Y84.953 E6.15370
G1 X94.835 Y85.100 E6.16187
G1 X89.525 Y85.100 E6.44425
G1 X89.525 Y74.952 E6.98393
G1 X89.180 Y74.555 F7800.000
G1 X99.395 Y74.555 E7.52719 F540.000
G1 X102.070 Y77.230 E7.72838
G1 X102.070 Y85.445 E8.16528
G1 X89.180 Y85.445 E8.85080
G1 X89.180 Y74.607 E9.42716
G1 X88.835 Y74.210 F7800.000
G1 X99.538 Y74.210 E9.99636 F324.000
G1 X102.415 Y77.087 E10.21274
G1 X102.415 Y85.790 E10.67558
G1 X88.835 Y85.790 E11.39779
G1 X88.835 Y74.262 E12.01083
G1 X89.138 Y74.385 F7800.000
G1 X89.725 Y80.729 F7800.000
G1 X93.896 Y84.900 E12.33118 F360.000
G1 X93.398 Y84.900 E12.35823
G1 X89.725 Y81.227 E12.64032
G1 X89.725 Y84.714 F7800.000
G1 X89.911 Y84.900 E12.65463 F360.000
G1 X90.409 Y84.900 E12.68168
G1 X89.725 Y84.216 E12.73424
G1 X89.725 Y83.718 E12.76129
G1 X90.907 Y84.900 E12.85211
G1 X91.405 Y84.900 E12.87916
G1 X89.725 Y83.220 E13.00824
G1 X89.725 Y82.722 E13.03529
G1 X91.903 Y84.900 E13.20261
G1 X92.401 Y84.900 E13.22966
G1 X89.725 Y82.224 E13.43525
G1 X89.725 Y81.725 E13.46230
G1 X92.900 Y84.900 E13.70613
G1 X92.861 Y83.368 F7800.000
G1 X89.725 Y80.231 E13.94702 F360.000
G1 X89.725 Y79.733 E13.97407
G1 X92.459 Y82.467 E14.18405
G1 X92.335 Y81.845 E14.21848
G1 X89.725 Y79.235 E14.41897
G1 X89.725 Y78.737 E14.44602
G1 X92.212 Y81.224 E14.63701
G1 X92.244 Y80.758 E14.66235
G1 X89.725 Y78.239 E14.85585
G1 X89.725 Y77.741 E14.88290
G1 X92.327 Y80.343 E15.08275
G1 X92.409 Y79.927 E15.10576
