; generated by Slic3r 1.2.9 on 2019-11-30 at 20:32:08

; external perimeters extrusion width = 0.35mm
; perimeters extrusion width = 0.44mm
; infill extrusion width = 0.44mm
; solid infill extrusion width = 0.44mm
; top infill extrusion width = 0.44mm

M107
M190 S100 ; set bed temperature
M104 S240 ; set temperature
G28 ; home all axes
G1 Z5 F5000 ; lift nozzle
M109 S240 ; wait for temperature to be reached
G21 ; set units to millimeters
G90 ; use absolute coordinates
M82 ; use absolute distances for extrusion
G92 E0
G1 E-1.00000 F1800.00000
G92 E0
G1 Z0.300 F7800.000
G1 X34.040 Y35.092 F7800.000
G1 E1.00000 F1800.00000
G1 X34.951 Y34.718 E1.03849 F1080.000
G1 X56.451 Y34.718 E1.87854
G1 X93.088 Y35.899 E3.31079
G1 X93.574 Y36.010 E3.33024
G1 X123.242 Y49.220 E4.59917
G1 X123.993 Y50.192 E4.64716
G1 X126.327 Y64.276 E5.20496
G1 X126.301 Y64.823 E5.22636
G1 X119.063 Y91.836 E6.31904
G1 X118.727 Y92.417 E6.34525
G1 X115.508 Y95.636 E6.52313
G1 X115.352 Y95.769 E6.53115
G1 X74.942 Y125.036 E8.48064
G1 X74.182 Y125.282 E8.51186
G1 X60.182 Y125.282 E9.05887
G1 X59.449 Y125.055 E9.08885
G1 X34.218 Y107.746 E10.28437
G1 X33.655 Y106.677 E10.33155
G1 X33.655 Y36.013 E13.09254
G1 X34.019 Y35.141 E13.12949
G1 E12.12949 F1800.00000
G92 E0
G1 X74.273 Y58.465 F7800.000
G1 E1.00000 F1800.00000
G1 X74.018 Y58.935 E1.02089 F270.000
G1 X73.802 Y59.233 E1.03529
G1 X73.558 Y59.504 E1.04950
G1 X73.288 Y59.747 E1.06372
G1 X72.993 Y59.961 E1.07794
G1 X72.678 Y60.143 E1.09216
G1 X72.346 Y60.291 E1.10637
G1 X72.000 Y60.403 E1.12059
G1 X71.639 Y60.480 E1.13498
G1 X71.106 Y60.522 E1.15588
G1 X70.737 Y60.503 E1.17034
G1 X70.377 Y60.446 E1.18456
G1 X70.026 Y60.352 E1.19878
G1 X69.680 Y60.219 E1.21324
G1 X69.210 Y59.964 E1.23413
G1 X68.912 Y59.747 E1.24853
G1 X68.642 Y59.504 E1.26274
G1 X68.398 Y59.233 E1.27696
G1 X68.185 Y58.939 E1.29118
G1 X68.003 Y58.624 E1.30539
G1 X67.853 Y58.287 E1.31979
G1 X67.700 Y57.773 E1.34075
G1 X67.643 Y57.409 E1.35515
G1 X67.624 Y57.046 E1.36936
G1 X67.643 Y56.682 E1.38358
G1 X67.701 Y56.317 E1.39805
G1 X67.853 Y55.804 E1.41894
G1 X68.003 Y55.467 E1.43333
G1 X68.185 Y55.152 E1.44755
G1 X68.398 Y54.858 E1.46177
G1 X68.642 Y54.587 E1.47598
G1 X68.912 Y54.344 E1.49020
G1 X69.212 Y54.126 E1.50466
G1 X69.682 Y53.871 E1.52556
G1 X70.026 Y53.739 E1.53995
G1 X70.377 Y53.645 E1.55417
G1 X70.737 Y53.588 E1.56839
G1 X71.105 Y53.569 E1.58278
G1 X71.639 Y53.611 E1.60374
G1 X72.000 Y53.688 E1.61814
G1 X72.346 Y53.800 E1.63235
G1 X72.678 Y53.948 E1.64657
G1 X72.993 Y54.130 E1.66079
G1 X73.288 Y54.344 E1.67501
G1 X73.558 Y54.587 E1.68922
G1 X73.802 Y54.858 E1.70344
G1 X74.019 Y55.157 E1.71790
G1 X74.274 Y55.627 E1.73880
G1 X74.406 Y55.971 E1.75319
G1 X74.500 Y56.323 E1.76741
G1 X74.557 Y56.682 E1.78163
G1 X74.576 Y57.046 E1.79584
G1 X74.557 Y57.409 E1.81006
G1 X74.500 Y57.768 E1.82428
G1 X74.406 Y58.120 E1.83849
G1 X74.292 Y58.416 E1.85091
G1 X74.004 Y58.341 F7800.000
G1 X73.768 Y58.777 E1.87029 F270.000
G1 X73.572 Y59.047 E1.88332
G1 X73.349 Y59.294 E1.89633
G1 X73.101 Y59.517 E1.90933
G1 X72.832 Y59.713 E1.92234
G1 X72.544 Y59.879 E1.93535
G1 X72.240 Y60.015 E1.94835
G1 X71.923 Y60.117 E1.96136
G1 X71.597 Y60.187 E1.97439
G1 X71.102 Y60.226 E1.99377
G1 X70.768 Y60.208 E2.00687
G1 X70.439 Y60.156 E2.01988
G1 X70.117 Y60.070 E2.03288
G1 X69.804 Y59.950 E2.04598
G1 X69.368 Y59.713 E2.06536
G1 X69.099 Y59.517 E2.07840
G1 X68.851 Y59.294 E2.09140
G1 X68.628 Y59.047 E2.10441
G1 X68.433 Y58.778 E2.11742
G1 X68.266 Y58.489 E2.13042
G1 X68.131 Y58.185 E2.14346
G1 X67.989 Y57.708 E2.16290
G1 X67.937 Y57.378 E2.17593
G1 X67.920 Y57.046 E2.18894
G1 X67.937 Y56.713 E2.20195
G1 X67.990 Y56.382 E2.21505
G1 X68.131 Y55.907 E2.23443
G1 X68.266 Y55.602 E2.24746
G1 X68.433 Y55.314 E2.26047
G1 X68.628 Y55.044 E2.27347
G1 X68.851 Y54.797 E2.28648
G1 X69.099 Y54.574 E2.29949
G1 X69.370 Y54.377 E2.31259
G1 X69.806 Y54.140 E2.33196
G1 X70.117 Y54.021 E2.34500
G1 X70.439 Y53.935 E2.35800
G1 X70.768 Y53.883 E2.37101
G1 X71.101 Y53.865 E2.38405
G1 X71.597 Y53.904 E2.40349
G1 X71.923 Y53.974 E2.41652
G1 X72.240 Y54.077 E2.42953
G1 X72.544 Y54.212 E2.44254
G1 X72.832 Y54.378 E2.45554
G1 X73.101 Y54.574 E2.46855
G1 X73.349 Y54.797 E2.48155
G1 X73.572 Y55.044 E2.49456
G1 X73.769 Y55.315 E2.50766
G1 X74.005 Y55.751 E2.52704
G1 X74.125 Y56.063 E2.54007
G1 X74.211 Y56.384 E2.55308
G1 X74.263 Y56.713 E2.56609
G1 X74.280 Y57.046 E2.57909
G1 X74.263 Y57.378 E2.59210
G1 X74.211 Y57.707 E2.60511
G1 X74.125 Y58.028 E2.61811
G1 X74.023 Y58.292 E2.62916
G1 X74.200 Y58.632 F7800.000
G1 X81.068 Y97.426 F7800.000
G1 X81.618 Y97.367 E2.65074 F270.000
G1 X82.089 Y97.401 E2.66920
G1 X82.641 Y97.549 E2.69155
G1 X83.158 Y97.813 E2.71422
G1 X83.601 Y98.171 E2.73649
G1 X83.897 Y98.518 E2.75429
G1 X84.182 Y99.012 E2.77657
G1 X84.362 Y99.563 E2.79924
G1 X84.422 Y100.140 E2.82191
G1 X84.362 Y100.717 E2.84458
G1 X84.182 Y101.269 E2.86725
G1 X83.897 Y101.763 E2.88953
G1 X83.601 Y102.109 E2.90733
G1 X83.158 Y102.468 E2.92959
G1 X82.641 Y102.732 E2.95227
G1 X82.091 Y102.879 E2.97454
G1 X81.647 Y102.914 E2.99194
G1 X81.203 Y102.879 E3.00934
G1 X80.652 Y102.732 E3.03162
G1 X80.135 Y102.468 E3.05429
G1 X79.692 Y102.109 E3.07656
G1 X79.396 Y101.763 E3.09436
G1 X79.111 Y101.269 E3.11664
G1 X78.932 Y100.717 E3.13931
G1 X78.871 Y100.140 E3.16198
G1 X78.932 Y99.563 E3.18465
G1 X79.111 Y99.012 E3.20732
G1 X79.396 Y98.518 E3.22959
G1 X79.691 Y98.172 E3.24735
G1 X80.112 Y97.830 E3.26853
G1 X80.526 Y97.602 E3.28699
G1 X81.019 Y97.442 E3.30724
G1 X81.131 Y97.717 F7800.000
G1 X81.623 Y97.663 E3.32658 F270.000
G1 X82.039 Y97.694 E3.34289
G1 X82.535 Y97.827 E3.36294
G1 X82.996 Y98.062 E3.38319
G1 X83.394 Y98.384 E3.40318
G1 X83.655 Y98.689 E3.41886
G1 X83.911 Y99.132 E3.43885
G1 X84.071 Y99.625 E3.45910
G1 X84.125 Y100.140 E3.47934
G1 X84.071 Y100.656 E3.49958
G1 X83.911 Y101.148 E3.51983
G1 X83.655 Y101.592 E3.53983
G1 X83.394 Y101.897 E3.55550
G1 X82.996 Y102.219 E3.57550
G1 X82.535 Y102.454 E3.59574
G1 X82.040 Y102.587 E3.61574
G1 X81.647 Y102.618 E3.63117
G1 X81.253 Y102.587 E3.64660
G1 X80.759 Y102.454 E3.66660
G1 X80.297 Y102.219 E3.68685
G1 X79.899 Y101.897 E3.70684
G1 X79.639 Y101.592 E3.72252
G1 X79.383 Y101.148 E3.74252
G1 X79.223 Y100.656 E3.76276
G1 X79.168 Y100.140 E3.78300
G1 X79.223 Y99.625 E3.80325
G1 X79.383 Y99.132 E3.82349
G1 X79.639 Y98.689 E3.84349
G1 X79.899 Y98.385 E3.85914
G1 X80.278 Y98.076 E3.87823
G1 X80.644 Y97.875 E3.89455
G1 X81.081 Y97.733 E3.91251
G1 X81.193 Y98.007 F7800.000
G1 X81.628 Y97.960 E3.92960 F270.000
G1 X81.990 Y97.987 E3.94378
G1 X82.428 Y98.104 E3.96152
G1 X82.835 Y98.311 E3.97933
G1 X83.187 Y98.597 E3.99706
G1 X83.412 Y98.861 E4.01061
G1 X83.639 Y99.253 E4.02833
G1 X83.780 Y99.687 E4.04615
G1 X83.828 Y100.140 E4.06396
G1 X83.780 Y100.594 E4.08178
G1 X83.639 Y101.028 E4.09959
G1 X83.412 Y101.420 E4.11732
G1 X83.187 Y101.684 E4.13087
G1 X82.835 Y101.970 E4.14859
G1 X82.428 Y102.177 E4.16641
G1 X81.990 Y102.294 E4.18413
G1 X81.647 Y102.321 E4.19759
G1 X81.303 Y102.294 E4.21105
G1 X80.865 Y102.177 E4.22877
G1 X80.459 Y101.970 E4.24659
G1 X80.106 Y101.684 E4.26431
G1 X79.881 Y101.420 E4.27786
G1 X79.654 Y101.028 E4.29559
G1 X79.513 Y100.594 E4.31340
G1 X79.466 Y100.140 E4.33122
G1 X79.513 Y99.687 E4.34903
G1 X79.654 Y99.253 E4.36685
G1 X79.881 Y98.861 E4.38457
G1 X80.106 Y98.597 E4.39811
G1 X80.443 Y98.322 E4.41511
G1 X80.761 Y98.147 E4.42929
G1 X81.143 Y98.023 E4.44497
G1 X81.312 Y97.678 F7800.000
G1 X81.645 Y44.914 F7800.000
G1 X81.184 Y44.876 E4.46303 F270.000
G1 X80.651 Y44.731 E4.48461
G1 X80.135 Y44.468 E4.50724
G1 X79.684 Y44.103 E4.52991
G1 X79.324 Y43.658 E4.55226
G1 X79.101 Y43.242 E4.57071
G1 X78.932 Y42.716 E4.59230
G1 X78.871 Y42.140 E4.61492
G1 X78.931 Y41.572 E4.63727
G1 X79.067 Y41.119 E4.65573
G1 X79.320 Y40.628 E4.67731
G1 X79.678 Y40.186 E4.69954
G1 X80.024 Y39.890 E4.71734
G1 X80.518 Y39.605 E4.73961
G1 X81.068 Y39.426 E4.76224
G1 X81.618 Y39.367 E4.78382
G1 X82.089 Y39.401 E4.80228
G1 X82.641 Y39.549 E4.82463
G1 X83.158 Y39.813 E4.84730
G1 X83.609 Y40.178 E4.86997
G1 X83.974 Y40.628 E4.89259
G1 X84.226 Y41.119 E4.91418
G1 X84.362 Y41.572 E4.93264
G1 X84.422 Y42.140 E4.95498
G1 X84.362 Y42.716 E4.97761
G1 X84.193 Y43.242 E4.99919
G1 X83.969 Y43.658 E5.01765
G1 X83.609 Y44.103 E5.04000
G1 X83.158 Y44.468 E5.06267
G1 X82.641 Y44.732 E5.08534
G1 X82.091 Y44.879 E5.10761
G1 X81.697 Y44.910 E5.12304
G1 X81.645 Y44.618 F7800.000
G1 X81.236 Y44.583 E5.13911 F270.000
G1 X80.758 Y44.454 E5.15845
G1 X80.297 Y44.219 E5.17867
G1 X79.894 Y43.893 E5.19891
G1 X79.571 Y43.494 E5.21895
G1 X79.374 Y43.126 E5.23527
G1 X79.223 Y42.655 E5.25461
G1 X79.168 Y42.140 E5.27482
G1 X79.222 Y41.630 E5.29487
G1 X79.343 Y41.230 E5.31118
G1 X79.569 Y40.790 E5.33052
G1 X79.890 Y40.393 E5.35049
G1 X80.195 Y40.132 E5.36617
G1 X80.639 Y39.876 E5.38616
G1 X81.131 Y39.717 E5.40638
G1 X81.623 Y39.663 E5.42572
G1 X82.039 Y39.694 E5.44203
G1 X82.535 Y39.827 E5.46208
G1 X82.996 Y40.062 E5.48232
G1 X83.399 Y40.388 E5.50256
G1 X83.725 Y40.790 E5.52278
G1 X83.951 Y41.230 E5.54212
G1 X84.071 Y41.630 E5.55843
G1 X84.125 Y42.140 E5.57848
G1 X84.071 Y42.655 E5.59869
G1 X83.919 Y43.126 E5.61803
G1 X83.722 Y43.494 E5.63435
G1 X83.399 Y43.893 E5.65439
G1 X82.996 Y44.219 E5.67463
G1 X82.535 Y44.454 E5.69488
G1 X82.040 Y44.587 E5.71488
G1 X81.698 Y44.613 E5.72830
G1 X81.646 Y44.321 F7800.000
G1 X81.287 Y44.291 E5.74239 F270.000
G1 X80.865 Y44.176 E5.75948
G1 X80.459 Y43.970 E5.77728
G1 X80.104 Y43.683 E5.79510
G1 X79.819 Y43.330 E5.81284
G1 X79.647 Y43.010 E5.82701
G1 X79.513 Y42.594 E5.84411
G1 X79.466 Y42.140 E5.86191
G1 X79.513 Y41.689 E5.87965
G1 X79.618 Y41.342 E5.89383
G1 X79.818 Y40.952 E5.91092
G1 X80.103 Y40.600 E5.92863
G1 X80.367 Y40.375 E5.94218
G1 X80.760 Y40.148 E5.95991
G1 X81.193 Y40.007 E5.97771
G1 X81.628 Y39.960 E5.99480
G1 X81.990 Y39.987 E6.00898
G1 X82.428 Y40.104 E6.02672
G1 X82.835 Y40.311 E6.04453
G1 X83.189 Y40.598 E6.06235
G1 X83.476 Y40.952 E6.08015
G1 X83.675 Y41.342 E6.09725
G1 X83.780 Y41.689 E6.11142
G1 X83.828 Y42.140 E6.12916
G1 X83.780 Y42.594 E6.14697
G1 X83.646 Y43.010 E6.16406
G1 X83.475 Y43.330 E6.17823
G1 X83.189 Y43.683 E6.19597
G1 X82.835 Y43.970 E6.21379
G1 X82.428 Y44.177 E6.23160
G1 X81.990 Y44.294 E6.24933
G1 X81.699 Y44.317 E6.26075
G1 X81.462 Y44.619 F7800.000
G1 E5.26075 F1800.00000
G92 E0
G1 X75.653 Y37.965 F7800.000
G1 E1.00000 F1800.00000
G1 X92.275 Y37.965 E1.64947 F900.000
G1 X92.275 Y58.826 E2.46455
G1 X91.985 Y58.756 E2.47624
G1 X91.572 Y58.713 E2.49244
G1 X91.014 Y58.727 E2.51428
G1 X90.601 Y58.791 E2.53058
G1 X90.209 Y58.896 E2.54645
G1 X89.680 Y59.115 E2.56883
G1 X89.310 Y59.330 E2.58553
G1 X88.867 Y59.671 E2.60737
G1 X88.574 Y59.964 E2.62357
G1 X88.220 Y60.426 E2.64631
G1 X87.941 Y60.938 E2.66910
G1 X87.789 Y61.337 E2.68579
G1 X87.657 Y61.891 E2.70803
G1 X87.611 Y62.481 E2.73115
G1 X87.657 Y63.071 E2.75426
G1 X87.789 Y63.624 E2.77650
G1 X87.941 Y64.024 E2.79320
G1 X88.215 Y64.527 E2.81559
G1 X88.459 Y64.863 E2.83181
G1 X88.853 Y65.279 E2.85419
G1 X89.186 Y65.547 E2.87089
G1 X89.672 Y65.843 E2.89313
G1 X90.209 Y66.066 E2.91585
G1 X90.610 Y66.173 E2.93207
G1 X91.177 Y66.248 E2.95441
G1 X91.591 Y66.248 E2.97061
G1 X92.146 Y66.176 E2.99245
G1 X92.275 Y66.141 E2.99769
G1 X92.275 Y104.726 E4.50528
G1 X75.654 Y104.726 E5.15472
G1 X75.654 Y88.583 E5.78547
G1 X66.254 Y79.276 E6.30232
G1 X66.254 Y55.581 E7.22812
G1 X66.288 Y55.252 E7.24105
G1 X66.382 Y54.965 E7.25283
G1 X66.553 Y54.681 E7.26580
G1 X66.787 Y54.447 E7.27873
G1 X67.081 Y54.270 E7.29213
G1 X67.412 Y54.169 E7.30565
G1 X68.562 Y54.094 E7.35067
G1 X68.617 Y54.212 E7.35577
G1 X68.433 Y54.378 E7.36545
G1 X68.168 Y54.672 E7.38088
G1 X67.936 Y54.991 E7.39631
G1 X67.739 Y55.333 E7.41173
G1 X67.575 Y55.701 E7.42749
G1 X67.412 Y56.251 E7.44990
G1 X67.348 Y56.651 E7.46573
G1 X67.328 Y57.046 E7.48115
G1 X67.348 Y57.440 E7.49658
G1 X67.411 Y57.838 E7.51234
G1 X67.575 Y58.390 E7.53481
G1 X67.739 Y58.758 E7.55057
G1 X67.936 Y59.100 E7.56600
G1 X68.168 Y59.420 E7.58143
G1 X68.433 Y59.713 E7.59686
G1 X68.726 Y59.977 E7.61228
G1 X69.052 Y60.214 E7.62804
G1 X69.556 Y60.488 E7.65044
G1 X69.934 Y60.633 E7.66627
G1 X70.316 Y60.735 E7.68170
G1 X70.706 Y60.797 E7.69713
G1 X71.110 Y60.818 E7.71296
G1 X71.682 Y60.773 E7.73537
G1 X72.076 Y60.689 E7.75112
G1 X72.452 Y60.567 E7.76655
G1 X72.813 Y60.407 E7.78198
G1 X73.155 Y60.209 E7.79740
G1 X73.474 Y59.977 E7.81283
G1 X73.767 Y59.713 E7.82826
G1 X74.032 Y59.420 E7.84368
G1 X74.269 Y59.093 E7.85944
G1 X74.542 Y58.590 E7.88185
G1 X74.688 Y58.211 E7.89768
G1 X74.790 Y57.830 E7.91310
G1 X74.852 Y57.440 E7.92853
G1 X74.872 Y57.046 E7.94396
G1 X74.852 Y56.651 E7.95939
G1 X74.790 Y56.261 E7.97482
G1 X74.688 Y55.880 E7.99024
G1 X74.543 Y55.503 E8.00600
G1 X74.270 Y54.999 E8.02840
G1 X74.032 Y54.672 E8.04423
G1 X73.767 Y54.378 E8.05966
G1 X73.474 Y54.114 E8.07509
G1 X73.155 Y53.882 E8.09052
G1 X72.813 Y53.684 E8.10594
G1 X72.452 Y53.524 E8.12137
G1 X72.076 Y53.402 E8.13680
G1 X71.682 Y53.318 E8.15256
G1 X71.486 Y53.303 E8.16024
G1 X71.457 Y53.175 E8.16535
G1 X72.008 Y52.857 E8.19022
G1 X72.686 Y52.364 E8.22297
G1 X73.302 Y51.810 E8.25533
G1 X73.604 Y51.491 E8.27250
G1 X74.119 Y50.855 E8.30447
G1 X74.370 Y50.490 E8.32179
G1 X74.782 Y49.776 E8.35399
G1 X75.123 Y49.010 E8.38674
G1 X75.382 Y48.213 E8.41949
G1 X75.556 Y47.393 E8.45224
G1 X75.644 Y46.560 E8.48498
G1 X75.653 Y38.017 E8.81876
G1 X75.358 Y37.669 F7800.000
G1 X92.571 Y37.669 E9.49132 F900.000
G1 X92.571 Y59.201 E10.33260
G1 X91.934 Y59.048 E10.35818
G1 X91.560 Y59.009 E10.37287
G1 X91.040 Y59.022 E10.39322
G1 X90.662 Y59.080 E10.40815
G1 X90.304 Y59.176 E10.42264
G1 X89.811 Y59.381 E10.44349
G1 X89.475 Y59.576 E10.45867
G1 X89.063 Y59.893 E10.47901
G1 X88.797 Y60.159 E10.49371
G1 X88.468 Y60.587 E10.51478
G1 X88.211 Y61.062 E10.53588
G1 X88.072 Y61.425 E10.55106
G1 X87.950 Y61.937 E10.57165
G1 X87.907 Y62.481 E10.59295
G1 X87.950 Y63.024 E10.61426
G1 X88.072 Y63.537 E10.63485
G1 X88.211 Y63.900 E10.65002
G1 X88.465 Y64.369 E10.67088
G1 X88.687 Y64.674 E10.68558
G1 X89.054 Y65.061 E10.70644
G1 X89.357 Y65.304 E10.72162
G1 X89.806 Y65.579 E10.74220
G1 X90.304 Y65.785 E10.76327
G1 X90.668 Y65.883 E10.77797
G1 X91.196 Y65.952 E10.79880
G1 X91.572 Y65.952 E10.81349
G1 X92.089 Y65.885 E10.83384
G1 X92.571 Y65.757 E10.85334
G1 X92.571 Y105.022 E12.38748
G1 X75.358 Y105.022 E13.06002
G1 X75.358 Y88.706 E13.69751
G1 X65.958 Y79.399 E14.21436
G1 X65.958 Y55.565 E15.14558
G1 X65.998 Y55.190 E15.16033
G1 X66.109 Y54.848 E15.17439
G1 X66.234 Y54.617 E15.18465
G1 X66.328 Y54.488 E15.19086
G1 X66.595 Y54.221 E15.20561
G1 X66.722 Y54.129 E15.21178
G1 X66.961 Y53.999 E15.22237
G1 X67.215 Y53.909 E15.23291
G1 X67.372 Y53.876 E15.23920
G1 X68.449 Y53.811 E15.28133
G1 X68.859 Y53.756 E15.29751
G1 X69.637 Y53.591 E15.32857
G1 X70.040 Y53.472 E15.34499
G1 X70.778 Y53.188 E15.37588
G1 X71.153 Y53.009 E15.39214
G1 X71.847 Y52.608 E15.42344
G1 X72.500 Y52.134 E15.45498
G1 X73.095 Y51.598 E15.48628
G1 X73.382 Y51.296 E15.50254
G1 X73.882 Y50.678 E15.53360
G1 X74.120 Y50.332 E15.55002
G1 X74.518 Y49.642 E15.58116
G1 X74.847 Y48.904 E15.61270
G1 X75.096 Y48.137 E15.64424
G1 X75.264 Y47.347 E15.67578
G1 X75.348 Y46.544 E15.70731
G1 X75.358 Y37.722 E16.05203
G1 X75.062 Y37.374 F7800.000
G1 X92.867 Y37.374 E16.74768 F540.000
G1 X92.867 Y59.663 E17.61856
G1 X92.367 Y59.456 E17.63968
G1 X91.884 Y59.340 E17.65909
G1 X91.549 Y59.305 E17.67227
G1 X91.066 Y59.317 E17.69112
G1 X90.723 Y59.370 E17.70468
G1 X90.399 Y59.457 E17.71779
G1 X89.942 Y59.646 E17.73712
G1 X89.640 Y59.822 E17.75077
G1 X89.258 Y60.116 E17.76962
G1 X89.019 Y60.354 E17.78280
G1 X88.717 Y60.749 E17.80221
G1 X88.480 Y61.185 E17.82163
G1 X88.356 Y61.512 E17.83528
G1 X88.243 Y61.983 E17.85422
G1 X88.204 Y62.481 E17.87372
G1 X88.243 Y62.978 E17.89321
G1 X88.356 Y63.450 E17.91215
G1 X88.480 Y63.776 E17.92581
G1 X88.716 Y64.211 E17.94513
G1 X88.914 Y64.484 E17.95832
G1 X89.255 Y64.843 E17.97765
G1 X89.527 Y65.062 E17.99130
G1 X89.941 Y65.315 E18.01024
G1 X90.399 Y65.505 E18.02964
G1 X90.726 Y65.592 E18.04284
G1 X91.216 Y65.657 E18.06215
